filters/04_Film LUTs_City Film.cube
LUT_3D_SIZE 16
-0.059906 -0.025597 0.022673
0.025425 0.023882 0.038048
0.052418 0.060947 0.072114
0.100641 0.076690 0.087059
0.165160 0.086553 0.099009
0.233601 0.086214 0.099837
0.310620 0.085519 0.100088
0.394463 0.079017 0.093460
0.483427 0.067934 0.082173
0.573525 0.052450 0.066978
0.655589 0.030525 0.047186
0.731184 -0.029882 0.025674
0.802292 -0.056641 -0.040023
0.867539 -0.064660 -0.053085
0.910907 -0.069373 -0.059831
1.068086 -0.068998 -0.059629
-0.054565 0.049949 0.046569
0.027950 0.049189 0.044235
0.050565 0.054604 0.065440
0.098648 0.075238 0.083959
0.165184 0.084091 0.098276
0.233654 0.091236 0.100258
0.310648 0.090337 0.100415
0.394457 0.084979 0.093867
0.483473 0.075254 0.082604
0.573549 0.061732 0.067430
0.655628 0.044654 0.048487
0.731141 0.020697 0.023667
0.802290 -0.041177 -0.039040
0.867539 -0.052974 -0.053926
0.910905 -0.060277 -0.059636
1.068088 -0.060407 -0.059577
-0.024261 0.122152 0.090273
0.039859 0.121578 0.088835
0.058074 0.122152 0.090273
0.103041 0.131535 0.096215
0.163909 0.140661 0.100868
0.232252 0.144814 0.100423
0.310451 0.147232 0.098717
0.394165 0.147007 0.090872
0.483208 0.144336 0.078845
0.573316 0.139609 0.063077
0.654350 0.134453 0.045142
0.729962 0.127493 0.016533
0.801347 0.121089 -0.042572
0.867539 0.113834 -0.055758
0.910899 0.108935 -0.060080
1.068092 0.107262 -0.059762
0.014533 0.192140 0.101912
0.047747 0.192094 0.101565
0.069145 0.192140 0.102987
0.103912 0.189950 0.102637
0.164421 0.203088 0.102391
0.233860 0.211046 0.097766
0.309915 0.216913 0.093851
0.393665 0.220578 0.084115
0.482730 0.222361 0.070748
0.572811 0.221927 0.053885
0.656809 0.219182 0.033741
0.732400 0.215571 -0.029597
0.801290 0.214098 -0.050504
0.867539 0.206238 -0.059018
0.910837 0.201324 -0.060301
1.068095 0.198778 -0.059658
0.012958 0.266692 0.101359
0.047659 0.266684 0.101328
0.069872 0.266692 0.101359
0.113636 0.266684 0.099187
0.161213 0.261549 0.097389
0.230796 0.278796 0.090362
0.308931 0.287566 0.083757
0.392759 0.294369 0.071931
0.482018 0.299050 0.056741
0.572308 0.301036 0.037459
0.655162 0.301126 0.010582
0.730994 0.298960 -0.046356
0.801294 0.292891 -0.057903
0.867539 0.287493 -0.060733
0.910841 0.282527 -0.059786
1.068097 0.279187 -0.059617
-0.029241 0.344482 0.088369
0.041916 0.344473 0.088544
0.068746 0.344482 0.086286
0.116529 0.343447 0.085420
0.172068 0.344710 0.084608
0.227435 0.338952 0.080024
0.306898 0.355936 0.067444
0.391588 0.366506 0.052632
0.481108 0.373454 0.033615
0.571754 0.377166 -0.021448
0.653323 0.377475 -0.050163
0.730445 0.378145 -0.058640
0.802209 0.372636 -0.061310
0.867539 0.366683 -0.059897
0.910841 0.358383 -0.059628
1.068097 0.354448 -0.059617
-0.049238 0.423905 0.062626
0.030565 0.423872 0.062842
0.061911 0.423905 0.061659
0.116282 0.421841 0.058041
0.178439 0.423231 0.056536
0.242321 0.423498 0.049022
0.301635 0.418207 0.044533
0.389640 0.435562 0.020322
0.480170 0.445559 -0.040848
0.571167 0.450470 -0.055766
0.654309 0.453555 -0.061718
0.728826 0.449491 -0.061032
0.802209 0.447425 -0.059869
0.867539 0.438934 -0.059622
0.910841 0.430362 -0.059617
1.068097 0.425871 -0.059617
-0.061706 0.503465 0.011839
0.011835 0.503454 0.012365
0.057124 0.503465 0.008585
0.117675 0.503454 -0.018968
0.183058 0.502114 -0.029700
0.251182 0.504547 -0.040403
0.318438 0.502114 -0.047800
0.385035 0.498607 -0.053032
0.478960 0.514319 -0.061730
0.571068 0.521266 -0.062207
0.653138 0.525208 -0.060294
0.728731 0.523253 -0.059703
0.802209 0.518870 -0.059617
0.867539 0.510983 -0.059617
0.910841 0.499042 -0.059617
1.068097 0.494126 -0.059617
-0.067560 0.581383 -0.063031
-0.029200 0.581382 -0.062956
0.052418 0.581383 -0.063051
0.116031 0.581382 -0.063318
0.186375 0.581337 -0.064101
0.257019 0.580816 -0.064275
0.328812 0.581337 -0.063562
0.402814 0.580816 -0.062064
0.476139 0.578327 -0.060597
0.570670 0.588905 -0.059781
0.653331 0.592057 -0.059617
0.729272 0.590868 -0.059617
0.802209 0.585507 -0.059617
0.867539 0.577081 -0.059617
0.910841 0.564882 -0.059617
1.068097 0.559385 -0.059617
-0.067078 0.654389 -0.060499
-0.027439 0.654389 -0.060476
0.053360 0.654389 -0.060394
0.119360 0.654389 -0.060221
0.189242 0.654417 -0.059975
0.261291 0.654417 -0.059757
0.334613 0.654417 -0.059645
0.410955 0.654417 -0.059618
0.489268 0.653995 -0.059617
0.569018 0.652462 -0.059617
0.655423 0.658854 -0.059617
0.728706 0.654438 -0.059617
0.802209 0.651729 -0.059617
0.867539 0.639810 -0.059617
0.910841 0.628364 -0.059617
1.068097 0.622292 -0.059617
-0.066957 0.721115 -0.059617
-0.026850 0.721115 -0.059617
0.054291 0.721115 -0.059617
0.119360 0.721115 -0.059617
0.192650 0.721115 -0.059617
0.264062 0.721115 -0.059617
0.336861 0.721115 -0.059617
0.413674 0.721115 -0.059617
0.493394 0.721115 -0.059617
0.575431 0.720636 -0.059617
0.653639 0.722051 -0.059617
0.730116 0.719699 -0.059617
0.802209 0.713514 -0.059617
0.867539 0.704188 -0.059617
0.910841 0.689245 -0.059617
1.068097 0.682913 -0.059617
-0.066937 0.781153 -0.059617
-0.026711 0.781153 -0.059617
0.053360 0.781153 -0.059617
0.121582 0.781153 -0.059617
0.190305 0.781153 -0.059617
0.261531 0.781153 -0.059617
0.335657 0.781153 -0.059617
0.412244 0.781153 -0.059617
0.491480 0.781153 -0.059617
0.573911 0.781177 -0.059617
0.650802 0.781153 -0.059617
0.734515 0.783113 -0.059617
0.802209 0.775457 -0.059617
0.867539 0.763616 -0.059617
0.910841 0.748488 -0.059617
1.068097 0.741531 -0.059617
-0.066879 0.834340 -0.059617
-0.026516 0.834340 -0.059617
0.053360 0.834340 -0.059617
0.117146 0.834340 -0.059617
0.188002 0.834340 -0.059617
0.256932 0.834340 -0.059617
0.331401 0.834340 -0.059617
0.406780 0.834340 -0.059617
0.485195 0.834340 -0.059617
0.566896 0.834340 -0.059617
0.643676 0.834340 -0.059617
0.722743 0.834340 -0.059617
0.806097 0.837514 -0.059617
0.868495 0.822525 -0.059617
0.910841 0.806022 -0.059617
1.068097 0.798678 -0.059617
-0.066787 0.879422 -0.059617
-0.026153 0.879422 -0.059617
0.050565 0.879422 -0.059617
0.116031 0.879422 -0.059617
0.183640 0.879422 -0.059617
0.253180 0.879422 -0.059617
0.324134 0.879422 -0.059617
0.398097 0.879422 -0.059617
0.474751 0.879422 -0.059617
0.555094 0.879422 -0.059617
0.629507 0.879422 -0.059617
0.708247 0.879422 -0.059617
0.786293 0.879704 -0.059617
0.874177 0.885581 -0.059617
0.912067 0.862507 -0.059617
1.068097 0.854205 -0.059617
-0.066692 0.908961 -0.059617
-0.026036 0.908961 -0.059617
0.048728 0.908961 -0.059617
0.110528 0.908961 -0.059617
0.178946 0.908961 -0.059617
0.245354 0.908961 -0.059617
0.314504 0.908961 -0.059617
0.386497 0.908961 -0.059617
0.460841 0.908961 -0.059617
0.538778 0.908961 -0.059617
0.614969 0.908961 -0.059617
0.688415 0.908961 -0.059617
0.762789 0.909161 -0.059617
0.843672 0.911096 -0.059617
0.917343 0.913912 -0.059617
1.068973 0.892104 -0.059617
-0.069095 1.174377 -0.078086
-0.032125 1.174409 -0.079900
0.047810 1.174303 -0.083760
0.110528 1.174191 -0.088264
0.178302 1.174116 -0.091787
0.243111 1.174041 -0.093770
0.308727 1.174092 -0.094136
0.376236 1.174144 -0.092805
0.445726 1.174227 -0.090008
0.519250 1.174329 -0.086273
0.594354 1.174350 -0.082077
0.665334 1.174441 -0.077893
0.742429 1.174479 -0.074281
0.822689 1.174493 -0.071617
0.887780 1.175186 -0.069976
1.069800 1.176509 -0.069282
-0.054142 -0.605367 0.075207
0.029004 -0.605147 0.079205
0.051492 -0.603412 0.095919
0.096839 -0.602152 0.113180
0.161091 -0.601374 0.125987
0.230919 -0.601040 0.130527
0.311882 -0.601076 0.133721
0.398952 -0.601662 0.129422
0.491152 -0.602603 0.120749
0.583599 -0.603701 0.108669
0.666976 -0.604865 0.094619
0.742953 -0.605790 0.079091
0.813011 -0.606620 0.065601
0.875127 -0.607052 0.054920
0.914894 -0.607348 0.045809
1.068965 -0.607360 0.043897
-0.054836 0.049810 0.069428
0.027496 0.048356 0.067786
0.050565 0.066952 0.086688
0.100187 0.081432 0.101867
0.165197 0.089018 0.112546
0.233618 0.088620 0.112913
0.310633 0.086922 0.112546
0.394469 0.079339 0.106356
0.483474 0.067155 0.096146
0.573563 0.050593 0.083035
0.655629 0.021132 0.065480
0.731165 -0.040399 0.051638
0.802293 -0.058786 0.037460
0.867539 -0.066440 0.025128
0.910909 -0.069606 0.015211
1.068088 -0.068425 0.016036
-0.026209 0.122045 0.098622
0.044822 0.121513 0.103909
0.058074 0.120936 0.102925
0.104743 0.133672 0.110443
0.163929 0.141365 0.113823
0.232233 0.144623 0.113622
0.310472 0.145744 0.111626
0.394156 0.144623 0.104877
0.483225 0.141233 0.094449
0.573327 0.135798 0.081475
0.654365 0.130229 0.066863
0.731071 0.123650 0.052090
0.801349 0.115534 0.037208
0.867539 0.112239 0.025282
0.910902 0.105667 0.019380
1.068092 0.104598 0.019862
0.013513 0.192134 0.111678
0.049325 0.192077 0.115051
0.069684 0.192134 0.113876
0.102536 0.189933 0.112850
0.164431 0.202370 0.113601
0.233876 0.211971 0.114175
0.309938 0.216193 0.107031
0.393706 0.219411 0.098952
0.482745 0.220761 0.087572
0.572819 0.219891 0.074217
0.656822 0.219707 0.059547
0.732413 0.215640 0.045530
0.801291 0.211462 0.030780
0.867539 0.207159 0.021573
0.910837 0.199746 0.018941
1.068095 0.197561 0.020052
0.012740 0.266691 0.113462
0.047968 0.266681 0.114341
0.072544 0.266691 0.113462
0.112905 0.266681 0.113238
0.161167 0.263219 0.111149
0.230831 0.278099 0.107719
0.308875 0.287170 0.098155
0.392804 0.293679 0.088503
0.482030 0.298077 0.076246
0.572316 0.299775 0.062680
0.655173 0.300147 0.047357
0.731009 0.297715 0.036970
0.801294 0.293019 0.022167
0.867539 0.287827 0.017158
0.910841 0.281619 0.019879
1.068097 0.278479 0.020130
-0.028764 0.344479 0.104193
0.041030 0.344474 0.102420
0.067763 0.344479 0.100954
0.116527 0.343447 0.100264
0.172059 0.343514 0.098231
0.227380 0.341560 0.094733
0.306889 0.355808 0.084567
0.391545 0.366077 0.073069
0.481092 0.372918 0.060063
0.571758 0.376531 0.046446
0.653309 0.378033 0.032112
0.730368 0.374457 0.021220
0.802209 0.370918 0.016434
0.867539 0.366177 0.019379
0.910841 0.357670 0.020132
1.068097 0.353950 0.020132
-0.048692 0.423896 0.085253
0.028077 0.423883 0.080033
0.061911 0.423896 0.079091
0.115136 0.421852 0.075970
0.179547 0.423274 0.074950
0.242349 0.422337 0.071307
0.301651 0.418237 0.066993
0.389679 0.435406 0.052961
0.480176 0.445269 0.039103
0.571169 0.450100 0.026119
0.654315 0.451273 0.015849
0.728829 0.451123 0.017668
0.802209 0.445036 0.019379
0.867539 0.441568 0.020132
0.910841 0.429977 0.020132
1.068097 0.425495 0.020132
-0.061140 0.503461 0.059393
-0.011277 0.503459 0.047843
0.053360 0.503461 0.049998
0.114924 0.503459 0.046026
0.180722 0.502143 0.045516
0.251210 0.504630 0.040331
0.318252 0.502143 0.034127
0.385074 0.498649 0.029273
0.478972 0.514180 0.016063
0.571067 0.521080 0.014582
0.653149 0.525058 0.019744
0.728730 0.522059 0.019682
0.802209 0.517655 0.020132
0.867539 0.508754 0.020132
0.910841 0.498768 0.020132
1.068097 0.493877 0.020132
-0.066947 0.581383 0.036406
-0.036362 0.581383 -0.013141
0.049646 0.581383 0.011604
0.114924 0.581383 0.010184
0.186133 0.581337 0.006963
0.255746 0.580823 0.008392
0.328567 0.581337 0.010744
0.402635 0.580823 0.015083
0.476193 0.578364 0.018283
0.570683 0.588838 0.019794
0.653386 0.592095 0.019777
0.729295 0.590780 0.020552
0.802209 0.585272 0.020132
0.867539 0.576933 0.020132
0.910841 0.564664 0.020132
1.068097 0.559255 0.020132
-0.066395 0.654389 0.040987
-0.035838 0.654389 0.009312
0.049646 0.654389 0.019628
0.117146 0.654389 0.019058
0.188878 0.654417 0.020067
0.259986 0.654417 0.019378
0.334271 0.654417 0.020067
0.410739 0.654417 0.020130
0.489178 0.654000 0.020132
0.568995 0.652674 0.020132
0.655350 0.656959 0.020132
0.729590 0.655626 0.020132
0.802209 0.651462 0.020132
0.867539 0.641631 0.020132
0.910841 0.628087 0.020132
1.068097 0.622117 0.020132
-0.066231 0.721115 0.042608
-0.035878 0.721115 0.011473
0.050565 0.721115 0.020251
0.117146 0.721115 0.020041
0.191104 0.721115 0.020132
0.261625 0.721115 0.020132
0.336388 0.721115 0.020132
0.413315 0.721115 0.020132
0.493110 0.721115 0.020132
0.575267 0.720777 0.020132
0.654313 0.722051 0.020132
0.729941 0.719840 0.020132
0.802209 0.713470 0.020132
0.867539 0.702113 0.020132
0.910841 0.689360 0.020132
1.068097 0.682717 0.020132
-0.066231 0.781153 0.042196
-0.035723 0.781153 0.011653
0.050565 0.781153 0.021421
0.118252 0.781153 0.019488
0.189741 0.781153 0.020132
0.262068 0.781153 0.020132
0.335097 0.781153 0.020132
0.411750 0.781153 0.020132
0.491251 0.781153 0.020132
0.573704 0.781177 0.020132
0.649581 0.781153 0.020132
0.734188 0.783113 0.020132
0.802209 0.775472 0.020132
0.867539 0.763695 0.020132
0.910841 0.748511 0.020132
1.068097 0.741646 0.020132
-0.066231 0.834340 0.040715
-0.034764 0.834340 0.012537
0.048728 0.834340 0.020145
0.116031 0.834340 0.019721
0.187362 0.834340 0.020132
0.257598 0.834340 0.020132
0.330770 0.834340 0.020132
0.406442 0.834340 0.020132
0.484899 0.834340 0.020132
0.566636 0.834340 0.020132
0.643361 0.834340 0.020132
0.724419 0.834340 0.020132
0.806097 0.837441 0.020132
0.868495 0.822499 0.020132
0.910841 0.805951 0.020132
1.068097 0.798577 0.020132
-0.066231 0.879422 0.038227
-0.033452 0.879423 0.013832
0.048728 0.879422 0.020268
0.112718 0.879423 0.019630
0.183126 0.879423 0.020132
0.252777 0.879423 0.020132
0.323641 0.879423 0.020132
0.397735 0.879423 0.020132
0.474469 0.879423 0.020132
0.554939 0.879423 0.020132
0.629276 0.879423 0.020132
0.708095 0.879423 0.020132
0.786293 0.879674 0.020132
0.874177 0.885504 0.020132
0.912067 0.862535 0.020132
1.068097 0.854129 0.020132
-0.066231 0.908961 0.034924
-0.032098 0.908960 0.015053
0.047810 0.908961 0.021151
0.108339 0.908960 0.019434
0.176437 0.908960 0.020132
0.246035 0.908960 0.020132
0.314159 0.908960 0.020132
0.386144 0.908960 0.020132
0.460669 0.908960 0.020132
0.538499 0.908960 0.020132
0.613811 0.908960 0.020132
0.688085 0.908960 0.020132
0.762797 0.909196 0.020132
0.843672 0.911016 0.020132
0.917352 0.913884 0.020132
1.068975 0.892103 0.020132
-0.069751 1.174368 -0.072553
-0.038264 1.174342 -0.082649
0.045091 1.174265 -0.085468
0.109427 1.174172 -0.091784
0.177749 1.174107 -0.097807
0.242737 1.174040 -0.102172
0.308226 1.174094 -0.104551
0.375882 1.174146 -0.105211
0.445514 1.174230 -0.104335
0.519017 1.174331 -0.102049
0.594128 1.174353 -0.098909
0.667027 1.174445 -0.095520
0.742356 1.174483 -0.091939
0.822689 1.174499 -0.088224
0.887702 1.175191 -0.085023
1.069805 1.176514 -0.083345
-0.042814 -0.604092 0.150026
0.029195 -0.604315 0.148604
0.055230 -0.603078 0.158733
0.098135 -0.601989 0.172495
0.161188 -0.601239 0.186114
0.231997 -0.601065 0.195146
0.311997 -0.601088 0.200030
0.398969 -0.601689 0.201538
0.491149 -0.602659 0.199731
0.583618 -0.603740 0.195116
0.666974 -0.604900 0.187952
0.742987 -0.605894 0.182239
0.812098 -0.606589 0.173544
0.875127 -0.607094 0.166744
0.914896 -0.607347 0.158383
1.068968 -0.607361 0.155898
-0.053431 0.042964 0.128667
0.032231 0.058959 0.131847
0.054291 0.071355 0.139678
0.099926 0.084868 0.155938
0.165134 0.092453 0.167704
0.233558 0.095190 0.176260
0.310581 0.094562 0.181751
0.394420 0.088883 0.182746
0.483418 0.079280 0.180764
0.573523 0.066309 0.176258
0.655582 0.052879 0.169986
0.731180 0.034169 0.162221
0.802285 -0.023493 0.156533
0.867539 -0.043045 0.150243
0.910899 -0.049474 0.143437
1.068088 -0.049430 0.141492
-0.025245 0.122875 0.149458
0.045436 0.122014 0.149253
0.058074 0.119545 0.147284
0.104406 0.124234 0.151440
0.163994 0.126577 0.154833
0.232425 0.121733 0.152092
0.310545 0.119926 0.150469
0.394324 0.112863 0.144443
0.483385 0.103326 0.135929
0.573372 0.092329 0.125803
0.655518 0.080188 0.114915
0.731064 0.072790 0.108126
0.801370 0.065077 0.099839
0.867539 0.059042 0.095361
0.910924 0.059278 0.093454
1.068091 0.060960 0.094302
0.013593 0.192128 0.162181
0.050852 0.192156 0.165628
0.061007 0.192128 0.154572
0.103242 0.191090 0.158034
0.164504 0.199350 0.157805
0.233901 0.204594 0.155356
0.309988 0.206809 0.153446
0.393704 0.207792 0.147719
0.482855 0.207366 0.140141
0.572805 0.205240 0.131441
0.656979 0.200996 0.124705
0.732388 0.196705 0.114826
0.801293 0.195843 0.108581
0.867539 0.190012 0.105658
0.910839 0.186199 0.104234
1.068095 0.184659 0.104577
0.012436 0.266645 0.168210
0.050444 0.266636 0.171737
0.061305 0.266645 0.153019
0.111475 0.264537 0.156574
0.162379 0.264790 0.155743
0.230879 0.274822 0.151440
0.309006 0.282486 0.147023
0.392876 0.287290 0.140496
0.482102 0.290475 0.132605
0.572401 0.291321 0.124391
0.655211 0.291525 0.115993
0.731070 0.287173 0.110003
0.801294 0.283053 0.106694
0.867539 0.280334 0.103523
0.910841 0.273694 0.104523
1.068097 0.270973 0.104609
-0.029164 0.344442 0.167077
0.044734 0.344420 0.170330
0.054291 0.344442 0.143125
0.110087 0.343415 0.149701
0.171126 0.341673 0.146119
0.227421 0.341359 0.146786
0.307034 0.353933 0.137346
0.391575 0.362827 0.130314
0.481122 0.368466 0.122584
0.571788 0.371205 0.115373
0.654312 0.372567 0.108230
0.730418 0.369172 0.105510
0.802209 0.365837 0.103525
0.867539 0.359132 0.104611
0.910841 0.352587 0.104611
1.068097 0.348926 0.104611
-0.048883 0.423800 0.160480
0.034351 0.423816 0.163475
0.042403 0.424809 0.127626
0.110236 0.422817 0.131774
0.173733 0.423954 0.130293
0.240369 0.421955 0.127166
0.302273 0.418961 0.125877
0.389831 0.434023 0.118299
0.480257 0.442797 0.111636
0.571193 0.446760 0.106575
0.654385 0.450804 0.105095
0.728842 0.447752 0.103326
0.802209 0.442509 0.104611
0.867539 0.436118 0.104611
0.910841 0.426443 0.104611
1.068097 0.422057 0.104611
-0.061225 0.503463 0.151931
0.019908 0.503461 0.154699
0.022371 0.503463 0.102477
0.106998 0.503461 0.112886
0.174886 0.502191 0.113693
0.245400 0.504045 0.112846
0.316808 0.502191 0.109304
0.385520 0.499065 0.107367
0.479029 0.513173 0.103684
0.571060 0.519180 0.103234
0.653257 0.523053 0.103684
0.728718 0.519180 0.104310
0.802209 0.515085 0.104611
0.867539 0.506171 0.104611
0.910841 0.496192 0.104611
1.068097 0.491281 0.104611
-0.066961 0.581381 0.146966
-0.008911 0.581381 0.149452
-0.013067 0.581381 0.088109
0.102906 0.581381 0.104350
0.178937 0.581338 0.103746
0.252435 0.580871 0.101271
0.325809 0.581338 0.102661
0.401415 0.580871 0.103428
0.476537 0.578676 0.104140
0.570819 0.588098 0.104539
0.653716 0.590451 0.104140
0.729453 0.588098 0.104539
0.802209 0.584481 0.104611
0.867539 0.575041 0.104611
0.910841 0.562844 0.104611
1.068097 0.557318 0.104611
-0.066386 0.654390 0.150720
0.005127 0.654390 0.152894
-0.018145 0.654390 0.087526
0.104728 0.654390 0.105596
0.179891 0.654417 0.104610
0.255678 0.654417 0.104611
0.330826 0.654417 0.104610
0.408572 0.654417 0.104611
0.488217 0.654051 0.104611
0.569471 0.652889 0.104611
0.653409 0.657971 0.104611
0.729100 0.654755 0.104611
0.802209 0.649127 0.104611
0.867539 0.640245 0.104611
0.910841 0.626743 0.104611
1.068097 0.620741 0.104611
-0.066231 0.721115 0.152144
0.006253 0.721115 0.154188
-0.018038 0.721115 0.086800
0.104688 0.721115 0.104727
0.181676 0.721115 0.104611
0.256770 0.721115 0.104611
0.332508 0.721115 0.104611
0.410667 0.721115 0.104611
0.491395 0.721115 0.104611
0.574619 0.720778 0.104611
0.654586 0.722051 0.104611
0.731281 0.718902 0.104611
0.802209 0.712552 0.104611
0.867539 0.702031 0.104611
0.910841 0.688312 0.104611
1.068097 0.681652 0.104611
-0.066231 0.781153 0.151522
0.006253 0.781153 0.153570
-0.016253 0.781153 0.088286
0.104688 0.781153 0.104098
0.180080 0.781153 0.104611
0.253713 0.781153 0.104611
0.330996 0.781153 0.104611
0.408731 0.781153 0.104611
0.489094 0.781153 0.104611
0.572448 0.781177 0.104611
0.650393 0.781153 0.104611
0.733917 0.783113 0.104611
0.802209 0.774799 0.104611
0.867539 0.761953 0.104611
0.910841 0.747774 0.104611
1.068097 0.740769 0.104611
-0.066231 0.834340 0.149291
0.006253 0.834340 0.151539
-0.002746 0.834340 0.087205
0.103601 0.834340 0.105331
0.179770 0.834340 0.104611
0.253416 0.834340 0.104611
0.326613 0.834340 0.104611
0.403392 0.834340 0.104611
0.482572 0.834340 0.104611
0.565075 0.834340 0.104611
0.642061 0.834340 0.104611
0.720987 0.834340 0.104611
0.806097 0.838001 0.104611
0.868495 0.822894 0.104611
0.910841 0.805528 0.104611
1.068097 0.798049 0.104611
-0.066231 0.879422 0.145616
0.006253 0.879423 0.148183
0.009538 0.879422 0.091001
0.100372 0.879423 0.105261
0.174559 0.879423 0.104611
0.246471 0.879423 0.104611
0.319565 0.879423 0.104611
0.394671 0.879423 0.104611
0.472048 0.879423 0.104611
0.553040 0.879423 0.104611
0.629821 0.879423 0.104611
0.708225 0.879423 0.104611
0.784375 0.879468 0.104611
0.874177 0.885168 0.104611
0.912067 0.862326 0.104611
1.068097 0.853739 0.104611
-0.066231 0.908961 0.140700
0.006253 0.908960 0.143849
0.013549 0.908961 0.091542
0.098235 0.908960 0.103128
0.171396 0.908961 0.104611
0.242015 0.908961 0.104611
0.310391 0.908961 0.104611
0.383306 0.908961 0.104611
0.458474 0.908961 0.104611
0.536781 0.908961 0.104611
0.613652 0.908961 0.104611
0.686443 0.908961 0.104611
0.761841 0.909285 0.104611
0.843672 0.910837 0.104611
0.917343 0.914064 0.104611
1.068988 0.891832 0.104611
-0.070906 1.174283 0.101237
-0.032644 1.174267 0.102381
-0.023720 1.174222 -0.052997
0.096484 1.174161 -0.030736
0.167571 1.174106 -0.061446
0.236807 1.174038 -0.078145
0.303622 1.174095 -0.088166
0.372168 1.174151 -0.094323
0.442577 1.174236 -0.097252
0.516885 1.174337 -0.097209
0.590263 1.174358 -0.094667
0.663978 1.174449 -0.089914
0.741036 1.174501 -0.083282
0.822689 1.174529 -0.074931
0.887311 1.175259 -0.065840
1.069831 1.176545 -0.059762
-0.031043 -0.603250 0.236913
0.040478 -0.603354 0.237544
0.064823 -0.602635 0.242177
0.102721 -0.602068 0.244905
0.164265 -0.601293 0.264937
0.233700 -0.600966 0.277674
0.312882 -0.601150 0.285747
0.399616 -0.601767 0.292202
0.491660 -0.602705 0.295460
0.584016 -0.603796 0.295200
0.667495 -0.604928 0.292345
0.742414 -0.605916 0.287972
0.813049 -0.606664 0.280002
0.875127 -0.607084 0.274291
0.914935 -0.607355 0.264384
1.068982 -0.607363 0.260721
-0.045663 0.060139 0.218751
0.036095 0.067497 0.219357
0.061911 0.075902 0.221929
0.101600 0.085692 0.225725
0.165047 0.094197 0.243558
0.233478 0.093582 0.252337
0.310502 0.094197 0.262419
0.394340 0.088325 0.268011
0.483386 0.078623 0.270759
0.573449 0.065664 0.270449
0.655518 0.050424 0.265542
0.731050 0.031096 0.263143
0.802272 -0.007315 0.258518
0.867539 -0.042904 0.250124
0.910885 -0.049696 0.242788
1.068089 -0.049472 0.239616
-0.020598 0.131132 0.227755
0.046463 0.133504 0.227858
0.059029 0.121186 0.226707
0.102384 0.124674 0.226779
0.164004 0.128156 0.237420
0.232240 0.129194 0.242225
0.310555 0.127046 0.250029
0.394141 0.122553 0.252719
0.483296 0.115516 0.253225
0.573441 0.106900 0.251276
0.655423 0.097056 0.247988
0.731036 0.088760 0.242875
0.801357 0.082044 0.235582
0.867539 0.077205 0.229910
0.910911 0.074924 0.225036
1.068092 0.075183 0.222529
0.013212 0.191232 0.228349
0.050594 0.191406 0.228753
0.064340 0.192297 0.230459
0.104031 0.191406 0.229801
0.165796 0.192004 0.230042
0.232008 0.189434 0.228274
0.310160 0.185568 0.223706
0.393922 0.180843 0.218761
0.483018 0.175127 0.212857
0.573155 0.169364 0.206590
0.654160 0.165414 0.201147
0.731728 0.159605 0.195933
0.801414 0.157316 0.194050
0.867539 0.158660 0.193866
0.910912 0.158402 0.192985
1.068095 0.159754 0.193866
0.011828 0.266551 0.241607
0.050218 0.266553 0.243148
0.063337 0.266551 0.236346
0.103587 0.264460 0.227353
0.163604 0.264558 0.231141
0.231007 0.271717 0.226215
0.309154 0.274978 0.224804
0.392939 0.276922 0.220912
0.482193 0.277772 0.216305
0.572474 0.277124 0.211441
0.655325 0.274639 0.207798
0.731073 0.274022 0.202916
0.802331 0.270834 0.201445
0.865624 0.268197 0.200481
0.910950 0.262488 0.200375
1.068097 0.260895 0.200481
-0.030019 0.344330 0.247237
0.044561 0.344417 0.249011
0.058074 0.345338 0.238829
0.099050 0.343412 0.219500
0.167005 0.342865 0.225161
0.227551 0.339974 0.223179
0.307216 0.351015 0.218816
0.391670 0.357326 0.214704
0.481213 0.361160 0.210399
0.571862 0.362736 0.206448
0.654350 0.363228 0.204025
0.730476 0.358648 0.200040
0.802290 0.356563 0.200485
0.867539 0.352587 0.200485
0.910904 0.345321 0.200485
1.068097 0.342383 0.200485
-0.049267 0.423765 0.248986
0.034213 0.423907 0.250502
0.047810 0.422766 0.238476
0.089703 0.421876 0.209313
0.166989 0.423682 0.216137
0.237257 0.422845 0.210905
0.303055 0.419662 0.211900
0.389869 0.431890 0.207709
0.480236 0.438813 0.204295
0.571210 0.441778 0.201684
0.654392 0.442840 0.200033
