filters/04_Film LUTs_City Film.cube
LUT_3D_SIZE 6
-0.059906 -0.025597 0.022673
0.100641 0.076690 0.087059
0.310620 0.085519 0.100088
0.573525 0.052450 0.066978
0.802292 -0.056641 -0.040023
1.068086 -0.068998 -0.059629
0.014533 0.192140 0.101912
0.103912 0.189950 0.102637
0.309915 0.216913 0.093851
0.572811 0.221927 0.053885
0.801290 0.214098 -0.050504
1.068095 0.198778 -0.059658
-0.049238 0.423905 0.062626
0.116282 0.421841 0.058041
0.301635 0.418207 0.044533
0.571167 0.450470 -0.055766
0.802209 0.447425 -0.059869
1.068097 0.425871 -0.059617
-0.067078 0.654389 -0.060499
0.119360 0.654389 -0.060221
0.334613 0.654417 -0.059645
0.569018 0.652462 -0.059617
0.802209 0.651729 -0.059617
1.068097 0.622292 -0.059617
-0.066879 0.834340 -0.059617
0.117146 0.834340 -0.059617
0.331401 0.834340 -0.059617
0.566896 0.834340 -0.059617
0.806097 0.837514 -0.059617
1.068097 0.798678 -0.059617
-0.069095 1.174377 -0.078086
0.110528 1.174191 -0.088264
0.308727 1.174092 -0.094136
0.519250 1.174329 -0.086273
0.742429 1.174479 -0.074281
1.069800 1.176509 -0.069282
-0.031043 -0.603250 0.236913
0.102721 -0.602068 0.244905
0.312882 -0.601150 0.285747
0.584016 -0.603796 0.295200
0.813049 -0.606664 0.280002
1.068982 -0.607363 0.260721
0.013212 0.191232 0.228349
0.104031 0.191406 0.229801
0.310160 0.185568 0.223706
0.573155 0.169364 0.206590
0.801414 0.157316 0.194050
1.068095 0.159754 0.193866
-0.049267 0.423765 0.248986
0.089703 0.421876 0.209313
0.303055 0.419662 0.211900
0.571210 0.441778 0.201684
0.802209 0.436597 0.200485
1.068097 0.417534 0.200485
-0.066375 0.654392 0.255655
0.074391 0.654392 0.191217
0.325274 0.654417 0.200484
0.569850 0.653239 0.200485
0.802209 0.646477 0.200485
1.068097 0.618908 0.200485
-0.066231 0.834340 0.253402
0.076392 0.834340 0.191060
0.320205 0.834340 0.200485
0.562656 0.834340 0.200485
0.806097 0.837469 0.200485
1.068097 0.797321 0.200485
-0.071936 1.174205 0.207959
0.071726 1.174126 0.135119
0.297807 1.174102 0.115203
0.513595 1.174347 0.091127
0.738679 1.174525 0.105125
1.069870 1.176590 0.127081
0.024174 -0.601382 0.566037
0.135917 -0.601020 0.569391
0.313050 -0.601443 0.566542
0.584460 -0.604205 0.613323
0.813161 -0.606780 0.604991
1.069025 -0.607367 0.565776
0.011658 0.219041 0.542688
0.099462 0.186317 0.542709
0.308415 0.188361 0.537776
0.572758 0.176550 0.565947
0.802331 0.165281 0.555502
1.068096 0.164260 0.524784
-0.051121 0.420819 0.531873
0.094041 0.421960 0.534053
0.305275 0.422125 0.534525
0.571294 0.419708 0.530040
0.802209 0.421374 0.530868
1.068097 0.423994 0.534515
-0.066303 0.654403 0.574506
0.083388 0.654403 0.560976
0.302397 0.654417 0.529677
0.571335 0.654566 0.531981
0.802209 0.642556 0.531981
1.068097 0.620772 0.531981
-0.066231 0.834340 0.569562
0.083540 0.834340 0.554212
0.304530 0.834340 0.531322
0.556942 0.834340 0.531981
0.806986 0.837389 0.531981
1.068097 0.798083 0.531981
-0.073759 1.174030 0.494582
0.065800 1.174031 0.477814
0.301986 1.174144 0.488855
0.516786 1.174395 0.476362
0.740892 1.174533 0.480828
1.069846 1.176561 0.494023
0.025213 -0.601305 0.943076
0.146857 -0.601509 0.945137
0.347166 -0.602554 0.942466
0.576579 -0.604943 0.932818
0.810583 -0.607111 0.927508
1.068809 -0.607365 0.872429
-0.025370 0.229969 0.906143
0.092132 0.176631 0.906173
0.329714 0.183625 0.905532
0.570978 0.173546 0.903480
0.802290 0.166426 0.894266
1.068097 0.164263 0.847203
-0.059523 0.451184 0.903852
0.089612 0.441415 0.903865
0.302691 0.419754 0.903731
0.570983 0.420030 0.903350
0.802209 0.420006 0.888796
1.068097 0.420006 0.848706
-0.066231 0.652833 0.902100
0.083539 0.653776 0.902152
0.303112 0.654176 0.903384
0.571207 0.654381 0.903171
0.802209 0.656029 0.904645
1.068097 0.658376 0.908111
-0.066231 0.834340 0.899513
0.083540 0.834340 0.896830
0.303112 0.834340 0.888234
0.573620 0.834340 0.904955
0.805096 0.836454 0.902977
1.068097 0.810971 0.902977
-0.073281 1.174115 0.823997
0.061911 1.174145 0.817336
0.292684 1.174262 0.818925
0.573715 1.174399 0.893036
0.764002 1.174528 0.891036
1.069183 1.175860 0.894951
0.006208 -0.602479 0.997814
0.142356 -0.602594 0.997863
0.341506 -0.603852 0.997726
0.565776 -0.605853 0.995740
0.805002 -0.607361 0.995005
1.068200 -0.607365 0.982857
-0.042253 0.224295 0.989956
0.088290 0.172948 0.989961
0.323403 0.178335 0.990001
0.562422 0.169940 0.989779
0.804121 0.164263 0.990345
1.068097 0.164263 0.980489
-0.062977 0.447378 0.989870
0.086274 0.437739 0.989873
0.304184 0.421028 0.989785
0.555732 0.419914 0.989769
0.804121 0.420006 0.990261
1.068097 0.420006 0.980604
-0.066231 0.649674 0.989719
0.083539 0.646850 0.989719
0.303112 0.641827 0.989719
0.574470 0.656730 0.989719
0.803177 0.654417 0.989783
1.068097 0.654417 0.984357
-0.066231 0.835953 0.990362
0.083540 0.836933 0.990397
0.303112 0.836448 0.990510
0.571207 0.835663 0.990251
0.802209 0.834906 0.990094
1.068097 0.835105 0.990113
-0.071639 1.174242 0.976428
0.066782 1.174268 0.976312
0.297461 1.174378 0.975998
0.575265 1.174468 0.980687
0.806769 1.174546 0.988055
1.067826 1.174294 0.988335
-0.034857 -0.603492 1.050630
0.128975 -0.603751 1.050633
0.316032 -0.604642 1.050633
0.523421 -0.606225 1.050596
0.745265 -0.607379 1.050553
1.070671 -0.607365 1.050557
-0.049656 0.211084 1.039956
0.088197 0.170729 1.039956
0.305090 0.174869 1.039956
0.529267 0.168324 1.039956
0.753542 0.164263 1.039956
1.071665 0.164263 1.039956
-0.063940 0.427974 1.039956
0.085534 0.419318 1.039956
0.308445 0.424753 1.039956
0.529144 0.419965 1.039956
0.754599 0.420006 1.039956
1.071586 0.420006 1.039956
-0.066231 0.623969 1.039956
0.083539 0.621211 1.039956
0.303112 0.620939 1.039956
0.578886 0.660167 1.039956
0.772102 0.654417 1.039956
1.070213 0.654417 1.039956
-0.066231 0.800747 1.039956
0.083540 0.797886 1.039956
0.303112 0.799474 1.039956
0.571207 0.811522 1.039956
0.804839 0.835346 1.039956
1.067642 0.834340 1.039956
-0.066231 1.070789 1.039956
0.083540 1.070869 1.039956
0.303112 1.070872 1.039956
0.571207 1.069692 1.039956
0.802209 1.067594 1.039956
1.068097 1.067892 1.039956
