filters/09_Dji LUTs_B&W.cube
TITLE "Generated by Resolve"
LUT_3D_SIZE 33
0 0 0
0 0 0
0 0 0
0 0 0
0 0 0
0 0 0
0 0 0
0 0 0
0 0 0
0 0 0
0 0 0
0 0 0
0 0 0
0 0 0
0 0 0
0 0 0
0.00311284 0.00311284 0.00311284
0.00735485 0.00735485 0.00735485
0.0109712 0.0109712 0.0109712
0.0140688 0.0140688 0.0140688
0.0171664 0.0171664 0.0171664
0.020325 0.020325 0.020325
0.0235447 0.0235447 0.0235447
0.0267491 0.0267491 0.0267491
0.0300145 0.0300145 0.0300145
0.0334325 0.0334325 0.0334325
0.0370489 0.0370489 0.0370489
0.04094 0.04094 0.04094
0.0450904 0.0450904 0.0450904
0.0494698 0.0494698 0.0494698
0.0540475 0.0540475 0.0540475
0.0587778 0.0587778 0.0587778
0.0636149 0.0636149 0.0636149
0 0 0
0 0 0
0 0 0
0 0 0
0 0 0
0 0 0
0 0 0
0 0 0
0 0 0
0 0 0
0 0 0
0 0 0
0.000503548 0.000503548 0.000503548
0.00560006 0.00560006 0.00560006
0.0106203 0.0106203 0.0106203
0.0154116 0.0154116 0.0154116
0.0199893 0.0199893 0.0199893
0.0243229 0.0243229 0.0243229
0.0280766 0.0280766 0.0280766
0.031281 0.031281 0.031281
0.0349584 0.0349584 0.0349584
0.0382696 0.0382696 0.0382696
0.0416419 0.0416419 0.0416419
0.0450446 0.0450446 0.0450446
0.0485084 0.0485084 0.0485084
0.0521248 0.0521248 0.0521248
0.0559854 0.0559854 0.0559854
0.0601053 0.0601053 0.0601053
0.0645151 0.0645151 0.0645151
0.0691691 0.0691691 0.0691691
0.0740368 0.0740368 0.0740368
0.0790723 0.0790723 0.0790723
0.0842298 0.0842298 0.0842298
0 0 0
0 0 0
0 0 0
0 0 0
0 0 0
0 0 0
0 0 0
0 0 0
0 0 0
0.00242618 0.00242618 0.00242618
0.00749218 0.00749218 0.00749218
0.0126192 0.0126192 0.0126192
0.017731 0.017731 0.017731
0.0229191 0.0229191 0.0229191
0.0280461 0.0280461 0.0280461
0.0329595 0.0329595 0.0329595
0.0376745 0.0376745 0.0376745
0.0421607 0.0421607 0.0421607
0.046067 0.046067 0.046067
0.0494545 0.0494545 0.0494545
0.0528878 0.0528878 0.0528878
0.0563973 0.0563973 0.0563973
0.0599985 0.0599985 0.0599985
0.0640421 0.0640421 0.0640421
0.0677653 0.0677653 0.0677653
0.0716564 0.0716564 0.0716564
0.0757916 0.0757916 0.0757916
0.0802167 0.0802167 0.0802167
0.0849165 0.0849165 0.0849165
0.0899062 0.0899062 0.0899062
0.0951095 0.0951095 0.0951095
0.100526 0.100526 0.100526
0.106096 0.106096 0.106096
0 0 0
0 0 0
0 0 0
0 0 0
0 0 0
0 0 0
0.0043946 0.0043946 0.0043946
0.00947585 0.00947585 0.00947585
0.0145724 0.0145724 0.0145724
0.0196994 0.0196994 0.0196994
0.0248569 0.0248569 0.0248569
0.0300908 0.0300908 0.0300908
0.0353246 0.0353246 0.0353246
0.04065 0.04065 0.04065
0.0459297 0.0459297 0.0459297
0.0510109 0.0510109 0.0510109
0.0559091 0.0559091 0.0559091
0.0605936 0.0605936 0.0605936
0.0647288 0.0647288 0.0647288
0.0683452 0.0683452 0.0683452
0.0720073 0.0720073 0.0720073
0.0757763 0.0757763 0.0757763
0.0796521 0.0796521 0.0796521
0.0835584 0.0835584 0.0835584
0.0875715 0.0875715 0.0875715
0.0917678 0.0917678 0.0917678
0.0962387 0.0962387 0.0962387
0.101015 0.101015 0.101015
0.106111 0.106111 0.106111
0.111513 0.111513 0.111513
0.117159 0.117159 0.117159
0.123033 0.123033 0.123033
0.129076 0.129076 0.129076
0 0 0
0 0 0
0.00148013 0.00148013 0.00148013
0.00642405 0.00642405 0.00642405
0.0114748 0.0114748 0.0114748
0.0165713 0.0165713 0.0165713
0.0216983 0.0216983 0.0216983
0.0268711 0.0268711 0.0268711
0.0320897 0.0320897 0.0320897
0.0373388 0.0373388 0.0373388
0.042649 0.042649 0.042649
0.0480354 0.0480354 0.0480354
0.0534524 0.0534524 0.0534524
0.0589761 0.0589761 0.0589761
0.0644694 0.0644694 0.0644694
0.0697642 0.0697642 0.0697642
0.0749065 0.0749065 0.0749065
0.0798505 0.0798505 0.0798505
0.0842145 0.0842145 0.0842145
0.0881208 0.0881208 0.0881208
0.0920882 0.0920882 0.0920882
0.0961624 0.0961624 0.0961624
0.100359 0.100359 0.100359
0.104616 0.104616 0.104616
0.108995 0.108995 0.108995
0.113588 0.113588 0.113588
0.118486 0.118486 0.118486
0.123705 0.123705 0.123705
0.129259 0.129259 0.129259
0.135134 0.135134 0.135134
0.141268 0.141268 0.141268
0.147616 0.147616 0.147616
0.154147 0.154147 0.154147
0.00854505 0.00854505 0.00854505
0.0136263 0.0136263 0.0136263
0.0187381 0.0187381 0.0187381
0.0237583 0.0237583 0.0237583
0.0289464 0.0289464 0.0289464
0.034165 0.034165 0.034165
0.0394141 0.0394141 0.0394141
0.0447242 0.0447242 0.0447242
0.0500954 0.0500954 0.0500954
0.0555428 0.0555428 0.0555428
0.0610361 0.0610361 0.0610361
0.0666514 0.0666514 0.0666514
0.0723125 0.0723125 0.0723125
0.0780652 0.0780652 0.0780652
0.0838331 0.0838331 0.0838331
0.0894026 0.0894026 0.0894026
0.0948501 0.0948501 0.0948501
0.100084 0.100084 0.100084
0.104753 0.104753 0.104753
0.108995 0.108995 0.108995
0.113298 0.113298 0.113298
0.117754 0.117754 0.117754
0.122377 0.122377 0.122377
0.127062 0.127062 0.127062
0.131899 0.131899 0.131899
0.136965 0.136965 0.136965
0.142336 0.142336 0.142336
0.148028 0.148028 0.148028
0.15407 0.15407 0.15407
0.160433 0.160433 0.160433
0.167056 0.167056 0.167056
0.173907 0.173907 0.173907
0.180957 0.180957 0.180957
0.0259251 0.0259251 0.0259251
0.0311284 0.0311284 0.0311284
0.0363622 0.0363622 0.0363622
0.0415198 0.0415198 0.0415198
0.0468605 0.0468605 0.0468605
0.0522621 0.0522621 0.0522621
0.0577249 0.0577249 0.0577249
0.0632486 0.0632486 0.0632486
0.0688334 0.0688334 0.0688334
0.0744945 0.0744945 0.0744945
0.0802625 0.0802625 0.0802625
0.0861372 0.0861372 0.0861372
0.0920729 0.0920729 0.0920729
0.0981308 0.0981308 0.0981308
0.104204 0.104204 0.104204
0.110124 0.110124 0.110124
0.115908 0.115908 0.115908
0.121508 0.121508 0.121508
0.126558 0.126558 0.126558
0.131228 0.131228 0.131228
0.135988 0.135988 0.135988
0.140902 0.140902 0.140902
0.145983 0.145983 0.145983
0.151156 0.151156 0.151156
0.156466 0.156466 0.156466
0.16202 0.16202 0.16202
0.167865 0.167865 0.167865
0.174075 0.174075 0.174075
0.180621 0.180621 0.180621
0.187488 0.187488 0.187488
0.194629 0.194629 0.194629
0.202014 0.202014 0.202014
0.209598 0.209598 0.209598
0.0437476 0.0437476 0.0437476
0.0491035 0.0491035 0.0491035
0.0545205 0.0545205 0.0545205
0.0600137 0.0600137 0.0600137
0.0654307 0.0654307 0.0654307
0.0710613 0.0710613 0.0710613
0.0767681 0.0767681 0.0767681
0.0825666 0.0825666 0.0825666
0.0884413 0.0884413 0.0884413
0.0944076 0.0944076 0.0944076
0.100481 0.100481 0.100481
0.106645 0.106645 0.106645
0.112917 0.112917 0.112917
0.119341 0.119341 0.119341
0.125811 0.125811 0.125811
0.132143 0.132143 0.132143
0.138369 0.138369 0.138369
0.144442 0.144442 0.144442
0.14995 0.14995 0.14995
0.155062 0.155062 0.155062
0.160311 0.160311 0.160311
0.165713 0.165713 0.165713
0.171283 0.171283 0.171283
0.176959 0.176959 0.176959
0.182773 0.182773 0.182773
0.18883 0.18883 0.18883
0.195209 0.195209 0.195209
0.201923 0.201923 0.201923
0.209003 0.209003 0.209003
0.216403 0.216403 0.216403
0.224094 0.224094 0.224094
0.232029 0.232029 0.232029
0.240162 0.240162 0.240162
0.0621958 0.0621958 0.0621958
0.0677653 0.0677653 0.0677653
0.0734264 0.0734264 0.0734264
0.0791638 0.0791638 0.0791638
0.0848554 0.0848554 0.0848554
0.0907607 0.0907607 0.0907607
0.0967727 0.0967727 0.0967727
0.102876 0.102876 0.102876
0.109087 0.109087 0.109087
0.115404 0.115404 0.115404
0.121843 0.121843 0.121843
0.12842 0.12842 0.12842
0.135134 0.135134 0.135134
0.142 0.142 0.142
0.148959 0.148959 0.148959
0.155779 0.155779 0.155779
0.162493 0.162493 0.162493
0.169055 0.169055 0.169055
0.175036 0.175036 0.175036
0.180652 0.180652 0.180652
0.186389 0.186389 0.186389
0.192309 0.192309 0.192309
0.198383 0.198383 0.198383
0.204578 0.204578 0.204578
0.210925 0.210925 0.210925
0.217517 0.217517 0.217517
0.224414 0.224414 0.224414
0.231678 0.231678 0.231678
0.239307 0.239307 0.239307
0.247272 0.247272 0.247272
0.255528 0.255528 0.255528
0.264042 0.264042 0.264042
0.272755 0.272755 0.272755
0.0814679 0.0814679 0.0814679
0.0873121 0.0873121 0.0873121
0.0932631 0.0932631 0.0932631
0.0993057 0.0993057 0.0993057
0.105333 0.105333 0.105333
0.111589 0.111589 0.111589
0.117952 0.117952 0.117952
0.124453 0.124453 0.124453
0.13109 0.13109 0.13109
0.137865 0.137865 0.137865
0.144778 0.144778 0.144778
0.151827 0.151827 0.151827
0.15903 0.15903 0.15903
0.1664 0.1664 0.1664
0.173861 0.173861 0.173861
0.18117 0.18117 0.18117
0.188388 0.188388 0.188388
0.195453 0.195453 0.195453
0.201923 0.201923 0.201923
0.208057 0.208057 0.208057
0.214313 0.214313 0.214313
0.220752 0.220752 0.220752
0.227375 0.227375 0.227375
0.234104 0.234104 0.234104
0.241001 0.241001 0.241001
0.248142 0.248142 0.248142
0.255619 0.255619 0.255619
0.263447 0.263447 0.263447
0.271641 0.271641 0.271641
0.280186 0.280186 0.280186
0.289021 0.289021 0.289021
0.298085 0.298085 0.298085
0.307332 0.307332 0.307332
0.101854 0.101854 0.101854
0.108034 0.108034 0.108034
0.114321 0.114321 0.114321
0.120729 0.120729 0.120729
0.127123 0.127123 0.127123
0.133791 0.133791 0.133791
0.140612 0.140612 0.140612
0.147555 0.147555 0.147555
0.15465 0.15465 0.15465
0.161883 0.161883 0.161883
0.169268 0.169268 0.169268
0.176806 0.176806 0.176806
0.184512 0.184512 0.184512
0.192401 0.192401 0.192401
0.200427 0.200427 0.200427
0.208316 0.208316 0.208316
0.216098 0.216098 0.216098
0.223743 0.223743 0.223743
0.230808 0.230808 0.230808
0.237491 0.237491 0.237491
0.244312 0.244312 0.244312
0.251301 0.251301 0.251301
0.258473 0.258473 0.258473
0.265751 0.265751 0.265751
0.273213 0.273213 0.273213
0.280919 0.280919 0.280919
0.28896 0.28896 0.28896
0.297353 0.297353 0.297353
0.306111 0.306111 0.306111
0.31519 0.31519 0.31519
0.324529 0.324529 0.324529
0.334066 0.334066 0.334066
0.343755 0.343755 0.343755
0.122972 0.122972 0.122972
0.129519 0.129519 0.129519
0.136202 0.136202 0.136202
0.142992 0.142992 0.142992
0.14995 0.14995 0.14995
0.156924 0.156924 0.156924
0.164172 0.164172 0.164172
0.171572 0.171572 0.171572
0.179126 0.179126 0.179126
0.186816 0.186816 0.186816
0.19469 0.19469 0.19469
0.202731 0.202731 0.202731
0.210941 0.210941 0.210941
0.219348 0.219348 0.219348
0.227924 0.227924 0.227924
0.236393 0.236393 0.236393
0.24477 0.24477 0.24477
0.253025 0.253025 0.253025
0.260731 0.260731 0.260731
0.268055 0.268055 0.268055
0.275517 0.275517 0.275517
0.283146 0.283146 0.283146
0.290959 0.290959 0.290959
0.298894 0.298894 0.298894
0.306981 0.306981 0.306981
0.315282 0.315282 0.315282
0.323842 0.323842 0.323842
0.332708 0.332708 0.332708
0.341848 0.341848 0.341848
0.351263 0.351263 0.351263
0.360861 0.360861 0.360861
0.370626 0.370626 0.370626
0.380499 0.380499 0.380499
0.144961 0.144961 0.144961
0.151949 0.151949 0.151949
0.15906 0.15906 0.15906
0.166293 0.166293 0.166293
0.173709 0.173709 0.173709
0.18114 0.18114 0.18114
0.188846 0.188846 0.188846
0.196704 0.196704 0.196704
0.204715 0.204715 0.204715
0.212909 0.212909 0.212909
0.221271 0.221271 0.221271
0.229801 0.229801 0.229801
0.238529 0.238529 0.238529
0.247456 0.247456 0.247456
0.256611 0.256611 0.256611
0.265644 0.265644 0.265644
0.274632 0.274632 0.274632
0.283513 0.283513 0.283513
0.291844 0.291844 0.291844
0.299763 0.299763 0.299763
0.307836 0.307836 0.307836
0.316045 0.316045 0.316045
0.324407 0.324407 0.324407
0.332876 0.332876 0.332876
0.341451 0.341451 0.341451
0.35021 0.35021 0.35021
0.359182 0.359182 0.359182
0.368399 0.368399 0.368399
0.377844 0.377844 0.377844
0.387488 0.387488 0.387488
0.397299 0.397299 0.397299
0.407233 0.407233 0.407233
0.417227 0.417227 0.417227
0.168002 0.168002 0.168002
0.175433 0.175433 0.175433
0.183001 0.183001 0.183001
0.190692 0.190692 0.190692
0.198535 0.198535 0.198535
0.206424 0.206424 0.206424
0.214603 0.214603 0.214603
0.222934 0.222934 0.222934
0.231418 0.231418 0.231418
0.240085 0.240085 0.240085
0.248936 0.248936 0.248936
0.257984 0.257984 0.257984
0.267216 0.267216 0.267216
0.276677 0.276677 0.276677
0.286397 0.286397 0.286397
0.296025 0.296025 0.296025
0.305608 0.305608 0.305608
0.315068 0.315068 0.315068
0.32401 0.32401 0.32401
0.332464 0.332464 0.332464
0.341024 0.341024 0.341024
0.349706 0.349706 0.349706
0.358511 0.358511 0.358511
0.367407 0.367407 0.367407
0.376379 0.376379 0.376379
0.385473 0.385473 0.385473
0.394751 0.394751 0.394751
0.404211 0.404211 0.404211
0.413855 0.413855 0.413855
0.423651 0.423651 0.423651
0.433555 0.433555 0.433555
0.443549 0.443549 0.443549
0.453574 0.453574 0.453574
0.192096 0.192096 0.192096
0.199969 0.199969 0.199969
0.207996 0.207996 0.207996
0.216114 0.216114 0.216114
0.22443 0.22443 0.22443
0.232898 0.232898 0.232898
0.241398 0.241398 0.241398
0.250202 0.250202 0.250202
0.259174 0.259174 0.259174
0.268315 0.268315 0.268315
0.277653 0.277653 0.277653
0.287175 0.287175 0.287175
0.296788 0.296788 0.296788
0.306615 0.306615 0.306615
0.316732 0.316732 0.316732
0.326833 0.326833 0.326833
0.336904 0.336904 0.336904
0.346899 0.346899 0.346899
0.356405 0.356405 0.356405
0.365377 0.365377 0.365377
0.374441 0.374441 0.374441
0.383581 0.383581 0.383581
0.392782 0.392782 0.392782
0.402014 0.402014 0.402014
0.411292 0.411292 0.411292
0.420645 0.420645 0.420645
0.430121 0.430121 0.430121
0.439734 0.439734 0.439734
0.449332 0.449332 0.449332
0.458885 0.458885 0.458885
0.468498 0.468498 0.468498
0.478172 0.478172 0.478172
0.487831 0.487831 0.487831
0.217166 0.217166 0.217166
0.225345 0.225345 0.225345
0.233509 0.233509 0.233509
0.24181 0.24181 0.24181
0.25034 0.25034 0.25034
0.259052 0.259052 0.259052
0.267811 0.267811 0.267811
0.27686 0.27686 0.27686
0.286107 0.286107 0.286107
0.295537 0.295537 0.295537
0.30518 0.30518 0.30518
0.315022 0.315022 0.315022
0.325093 0.325093 0.325093
0.335393 0.335393 0.335393
0.345968 0.345968 0.345968
0.356497 0.356497 0.356497
0.366949 0.366949 0.366949
0.377279 0.377279 0.377279
0.387121 0.387121 0.387121
0.396353 0.396353 0.396353
0.405646 0.405646 0.405646
0.415015 0.415015 0.415015
0.42443 0.42443 0.42443
0.43389 0.43389 0.43389
0.443381 0.443381 0.443381
0.452918 0.452918 0.452918
0.462486 0.462486 0.462486
0.472099 0.472099 0.472099
0.481727 0.481727 0.481727
0.491386 0.491386 0.491386
0.501045 0.501045 0.501045
0.510704 0.510704 0.510704
0.520348 0.520348 0.520348
0.241138 0.241138 0.241138
0.24976 0.24976 0.24976
0.258503 0.258503 0.258503
0.267323 0.267323 0.267323
0.276387 0.276387 0.276387
0.285618 0.285618 0.285618
0.294881 0.294881 0.294881
0.304463 0.304463 0.304463
0.314183 0.314183 0.314183
0.324086 0.324086 0.324086
0.334157 0.334157 0.334157
0.344411 0.344411 0.344411
0.354864 0.354864 0.354864
0.36553 0.36553 0.36553
0.37644 0.37644 0.37644
0.387289 0.387289 0.387289
0.398032 0.398032 0.398032
0.408637 0.408637 0.408637
0.418723 0.418723 0.418723
0.428153 0.428153 0.428153
0.437629 0.437629 0.437629
0.447135 0.447135 0.447135
0.456687 0.456687 0.456687
0.466255 0.466255 0.466255
0.475837 0.475837 0.475837
0.48542 0.48542 0.48542
0.495033 0.495033 0.495033
0.504646 0.504646 0.504646
0.51426 0.51426 0.51426
0.523888 0.523888 0.523888
0.533471 0.533471 0.533471
0.543053 0.543053 0.543053
0.55259 0.55259 0.55259
0.266865 0.266865 0.266865
0.276005 0.276005 0.276005
0.285283 0.285283 0.285283
0.294621 0.294621 0.294621
0.304173 0.304173 0.304173
0.313893 0.313893 0.313893
0.323613 0.323613 0.323613
0.333608 0.333608 0.333608
0.34374 0.34374 0.34374
0.354009 0.354009 0.354009
0.364431 0.364431 0.364431
0.375021 0.375021 0.375021
0.385779 0.385779 0.385779
0.396719 0.396719 0.396719
0.407874 0.407874 0.407874
0.418952 0.418952 0.418952
0.429892 0.429892 0.429892
0.440665 0.440665 0.440665
0.450904 0.450904 0.450904
0.460456 0.460456 0.460456
0.470039 0.470039 0.470039
0.479622 0.479622 0.479622
0.489219 0.489219 0.489219
0.498802 0.498802 0.498802
0.508385 0.508385 0.508385
0.517952 0.517952 0.517952
0.527504 0.527504 0.527504
0.537041 0.537041 0.537041
0.546563 0.546563 0.546563
0.556069 0.556069 0.556069
0.565515 0.565515 0.565515
0.574914 0.574914 0.574914
0.584253 0.584253 0.584253
0.294392 0.294392 0.294392
0.304036 0.304036 0.304036
0.313771 0.313771 0.313771
0.323552 0.323552 0.323552
0.333532 0.333532 0.333532
0.343633 0.343633 0.343633
0.353719 0.353719 0.353719
0.364065 0.364065 0.364065
0.374502 0.374502 0.374502
0.385077 0.385077 0.385077
0.395758 0.395758 0.395758
0.406592 0.406592 0.406592
0.417548 0.417548 0.417548
0.428672 0.428672 0.428672
0.439994 0.439994 0.439994
0.451209 0.451209 0.451209
0.462272 0.462272 0.462272
0.473121 0.473121 0.473121
0.483421 0.483421 0.483421
0.493019 0.493019 0.493019
0.502602 0.502602 0.502602
0.512169 0.512169 0.512169
0.521737 0.521737 0.521737
0.531258 0.531258 0.531258
0.540749 0.540749 0.540749
0.55021 0.55021 0.55021
0.55964 0.55964 0.55964
0.569024 0.569024 0.569024
0.578378 0.578378 0.578378
0.587671 0.587671 0.587671
0.597055 0.597055 0.597055
0.606516 0.606516 0.606516
0.616022 0.616022 0.616022
0.323507 0.323507 0.323507
0.333547 0.333547 0.333547
0.343664 0.343664 0.343664
0.353811 0.353811 0.353811
0.364111 0.364111 0.364111
0.374517 0.374517 0.374517
0.384894 0.384894 0.384894
0.395483 0.395483 0.395483
0.406165 0.406165 0.406165
0.416938 0.416938 0.416938
0.427817 0.427817 0.427817
0.438788 0.438788 0.438788
0.449882 0.449882 0.449882
0.461112 0.461112 0.461112
0.472511 0.472511 0.472511
0.483772 0.483772 0.483772
0.49485 0.49485 0.49485
0.505699 0.505699 0.505699
0.515953 0.515953 0.515953
0.525505 0.525505 0.525505
0.535012 0.535012 0.535012
0.544503 0.544503 0.544503
0.553948 0.553948 0.553948
0.563348 0.563348 0.563348
0.572671 0.572671 0.572671
0.581949 0.581949 0.581949
0.591211 0.591211 0.591211
0.60058 0.60058 0.60058
0.61004 0.61004 0.61004
0.619577 0.619577 0.619577
0.629191 0.629191 0.629191
0.638834 0.638834 0.638834
0.648447 0.648447 0.648447
0.353841 0.353841 0.353841
0.364202 0.364202 0.364202
0.37464 0.37464 0.37464
0.385046 0.385046 0.385046
0.39559 0.39559 0.39559
0.406226 0.406226 0.406226
0.4168 0.4168 0.4168
0.427558 0.427558 0.427558
0.438376 0.438376 0.438376
0.449271 0.449271 0.449271
0.460243 0.460243 0.460243
0.47129 0.47129 0.47129
0.482429 0.482429 0.482429
0.493675 0.493675 0.493675
0.505058 0.505058 0.505058
0.516289 0.516289 0.516289
0.527321 0.527321 0.527321
0.538079 0.538079 0.538079
0.548241 0.548241 0.548241
0.557656 0.557656 0.557656
0.567041 0.567041 0.567041
0.576349 0.576349 0.576349
0.585595 0.585595 0.585595
0.594873 0.594873 0.594873
0.604227 0.604227 0.604227
0.613672 0.613672 0.613672
0.623194 0.623194 0.623194
0.632776 0.632776 0.632776
0.64239 0.64239 0.64239
0.652049 0.652049 0.652049
0.661707 0.661707 0.661707
0.671366 0.671366 0.671366
0.680949 0.680949 0.680949
0.385199 0.385199 0.385199
0.395804 0.395804 0.395804
0.406439 0.406439 0.406439
0.417044 0.417044 0.417044
0.427756 0.427756 0.427756
0.438529 0.438529 0.438529
0.449195 0.449195 0.449195
0.460044 0.460044 0.460044
0.470939 0.470939 0.470939
0.481865 0.481865 0.481865
0.492836 0.492836 0.492836
0.503868 0.503868 0.503868
0.514961 0.514961 0.514961
0.526146 0.526146 0.526146
0.537438 0.537438 0.537438
0.548547 0.548547 0.548547
0.559426 0.559426 0.559426
0.570047 0.570047 0.570047
0.580011 0.580011 0.580011
0.589258 0.589258 0.589258
0.598566 0.598566 0.598566
0.607965 0.607965 0.607965
0.617426 0.617426 0.617426
0.626947 0.626947 0.626947
0.6365 0.6365 0.6365
0.646082 0.646082 0.646082
0.655695 0.655695 0.655695
0.665309 0.665309 0.665309
0.674922 0.674922 0.674922
0.68452 0.68452 0.68452
0.694072 0.694072 0.694072
0.703578 0.703578 0.703578
0.712947 0.712947 0.712947
0.41735 0.41735 0.41735
0.428107 0.428107 0.428107
0.438865 0.438865 0.438865
0.449577 0.449577 0.449577
0.460365 0.460365 0.460365
0.471183 0.471183 0.471183
0.48188 0.48188 0.48188
0.492729 0.492729 0.492729
0.503594 0.503594 0.503594
0.514473 0.514473 0.514473
0.525368 0.525368 0.525368
0.536294 0.536294 0.536294
0.547265 0.547265 0.547265
0.558297 0.558297 0.558297
0.569421 0.569421 0.569421
0.580316 0.580316 0.580316
0.591043 0.591043 0.591043
0.601633 0.601633 0.601633
0.611719 0.611719 0.611719
0.62121 0.62121 0.62121
0.630747 0.630747 0.630747
0.640314 0.640314 0.640314
0.649912 0.649912 0.649912
0.659495 0.659495 0.659495
0.669062 0.669062 0.669062
0.67863 0.67863 0.67863
0.688151 0.688151 0.688151
0.697643 0.697643 0.697643
0.707073 0.707073 0.707073
0.716457 0.716457 0.716457
0.725734 0.725734 0.725734
0.73489 0.73489 0.73489
0.743923 0.743923 0.743923
0.450065 0.450065 0.450065
0.460883 0.460883 0.460883
0.471687 0.471687 0.471687
0.482414 0.482414 0.482414
0.493187 0.493187 0.493187
0.503975 0.503975 0.503975
0.514626 0.514626 0.514626
0.525383 0.525383 0.525383
0.536141 0.536141 0.536141
0.546868 0.546868 0.546868
0.55761 0.55761 0.55761
0.568353 0.568353 0.568353
0.579126 0.579126 0.579126
0.590051 0.590051 0.590051
0.601236 0.601236 0.601236
0.612299 0.612299 0.612299
0.623255 0.623255 0.623255
0.634028 0.634028 0.634028
0.64416 0.64416 0.64416
0.653758 0.653758 0.653758
0.66334 0.66334 0.66334
0.672908 0.672908 0.672908
0.68246 0.68246 0.68246
0.691951 0.691951 0.691951
0.701381 0.701381 0.701381
0.710735 0.710735 0.710735
0.720027 0.720027 0.720027
0.729229 0.729229 0.729229
0.738323 0.738323 0.738323
0.747295 0.747295 0.747295
0.75613 0.75613 0.75613
0.764782 0.764782 0.764782
0.773297 0.773297 0.773297
0.483101 0.483101 0.483101
0.493904 0.493904 0.493904
0.504662 0.504662 0.504662
0.515312 0.515312 0.515312
0.525994 0.525994 0.525994
0.53666 0.53666 0.53666
0.547158 0.547158 0.547158
0.557763 0.557763 0.557763
0.568307 0.568307 0.568307
0.578866 0.578866 0.578866
0.589578 0.589578 0.589578
0.600427 0.600427 0.600427
0.611444 0.611444 0.611444
0.622629 0.622629 0.622629
0.633967 0.633967 0.633967
0.64506 0.64506 0.64506
0.656046 0.656046 0.656046
0.666804 0.666804 0.666804
0.676753 0.676753 0.676753
0.686275 0.686275 0.686275
0.69575 0.69575 0.69575
0.70515 0.70515 0.70515
0.714504 0.714504 0.714504
0.723751 0.723751 0.723751
0.732876 0.732876 0.732876
0.741878 0.741878 0.741878
0.750744 0.750744 0.750744
0.759487 0.759487 0.759487
0.768078 0.768078 0.768078
0.776455 0.776455 0.776455
0.78468 0.78468 0.78468
0.792706 0.792706 0.792706
0.800534 0.800534 0.800534
0.516152 0.516152 0.516152
0.526848 0.526848 0.526848
0.537484 0.537484 0.537484
0.547982 0.547982 0.547982
0.55848 0.55848 0.55848
0.568811 0.568811 0.568811
0.579324 0.579324 0.579324
0.589944 0.589944 0.589944
0.600656 0.600656 0.600656
0.61149 0.61149 0.61149
0.622415 0.622415 0.622415
0.633402 0.633402 0.633402
0.644526 0.644526 0.644526
0.655802 0.655802 0.655802
0.667048 0.667048 0.667048
0.67808 0.67808 0.67808
0.688914 0.688914 0.688914
0.699458 0.699458 0.699458
0.708995 0.708995 0.708995
0.718288 0.718288 0.718288
0.727489 0.727489 0.727489
0.736553 0.736553 0.736553
0.74551 0.74551 0.74551
0.754299 0.754299 0.754299
0.762951 0.762951 0.762951
0.77142 0.77142 0.77142
0.779721 0.779721 0.779721
0.787823 0.787823 0.787823
0.795743 0.795743 0.795743
0.803449 0.803449 0.803449
0.810971 0.810971 0.810971
0.818296 0.818296 0.818296
0.825422 0.825422 0.825422
0.548913 0.548913 0.548913
0.559426 0.559426 0.559426
0.569863 0.569863 0.569863
0.580301 0.580301 0.580301
0.590875 0.590875 0.590875
0.601434 0.601434 0.601434
0.612192 0.612192 0.612192
0.623011 0.623011 0.623011
0.633875 0.633875 0.633875
0.64477 0.64477 0.64477
0.655741 0.655741 0.655741
0.666758 0.666758 0.666758
0.677836 0.677836 0.677836
0.689006 0.689006 0.689006
0.699977 0.699977 0.699977
0.710719 0.710719 0.710719
0.721202 0.721202 0.721202
0.731289 0.731289 0.731289
0.740307 0.740307 0.740307
0.749187 0.749187 0.749187
0.757931 0.757931 0.757931
0.766522 0.766522 0.766522
0.774914 0.774914 0.774914
0.783123 0.783123 0.783123
0.791104 0.791104 0.791104
0.798901 0.798901 0.798901
0.806485 0.806485 0.806485
0.813886 0.813886 0.813886
0.821088 0.821088 0.821088
0.828122 0.828122 0.828122
0.834958 0.834958 0.834958
0.841627 0.841627 0.841627
0.848096 0.848096 0.848096
0.581384 0.581384 0.581384
0.592035 0.592035 0.592035
0.602731 0.602731 0.602731
0.613397 0.613397 0.613397
0.624033 0.624033 0.624033
0.634852 0.634852 0.634852
0.645655 0.645655 0.645655
0.656489 0.656489 0.656489
0.667338 0.667338 0.667338
