filters/09_Dji LUTs_B&W.cube
TITLE "Generated by Resolve"
LUT_3D_SIZE 5
0 0 0
0 0 0
0.00311284 0.00311284 0.00311284
0.0300145 0.0300145 0.0300145
0.0636149 0.0636149 0.0636149
0.0621958 0.0621958 0.0621958
0.109087 0.109087 0.109087
0.162493 0.162493 0.162493
0.210925 0.210925 0.210925
0.272755 0.272755 0.272755
0.241138 0.241138 0.241138
0.314183 0.314183 0.314183
0.398032 0.398032 0.398032
0.475837 0.475837 0.475837
0.55259 0.55259 0.55259
0.483101 0.483101 0.483101
0.568307 0.568307 0.568307
0.656046 0.656046 0.656046
0.732876 0.732876 0.732876
0.800534 0.800534 0.800534
0.744961 0.744961 0.744961
0.816648 0.816648 0.816648
0.874754 0.874754 0.874754
0.914488 0.914488 0.914488
0.94873 0.94873 0.94873
0 0 0
0 0 0
0.0171664 0.0171664 0.0171664
0.0450446 0.0450446 0.0450446
0.0803845 0.0803845 0.0803845
0.077821 0.077821 0.077821
0.126894 0.126894 0.126894
0.183474 0.183474 0.183474
0.235264 0.235264 0.235264
0.300847 0.300847 0.300847
0.265827 0.265827 0.265827
0.342123 0.342123 0.342123
0.427695 0.427695 0.427695
0.505653 0.505653 0.505653
0.581735 0.581735 0.581735
0.513497 0.513497 0.513497
0.598047 0.598047 0.598047
0.686244 0.686244 0.686244
0.760662 0.760662 0.760662
0.824048 0.824048 0.824048
0.771862 0.771862 0.771862
0.838682 0.838682 0.838682
0.892439 0.892439 0.892439
0.929671 0.929671 0.929671
0.96286 0.96286 0.96286
0 0 0
0 0 0
0.0295109 0.0295109 0.0295109
0.0596933 0.0596933 0.0596933
0.0973068 0.0973068 0.0973068
0.0918593 0.0918593 0.0918593
0.143359 0.143359 0.143359
0.203403 0.203403 0.203403
0.259327 0.259327 0.259327
0.328298 0.328298 0.328298
0.291844 0.291844 0.291844
0.370306 0.370306 0.370306
0.45687 0.45687 0.45687
0.534936 0.534936 0.534936
0.609979 0.609979 0.609979
0.543481 0.543481 0.543481
0.627466 0.627466 0.627466
0.714855 0.714855 0.714855
0.786465 0.786465 0.786465
0.845212 0.845212 0.845212
0.794903 0.794903 0.794903
0.856733 0.856733 0.856733
0.907179 0.907179 0.907179
0.943053 0.943053 0.943053
0.976104 0.976104 0.976104
0 0 0
0 0 0
0.0386053 0.0386053 0.0386053
0.0707561 0.0707561 0.0707561
0.110796 0.110796 0.110796
0.103151 0.103151 0.103151
0.157595 0.157595 0.157595
0.221241 0.221241 0.221241
0.281071 0.281071 0.281071
0.35317 0.35317 0.35317
0.315129 0.315129 0.315129
0.395926 0.395926 0.395926
0.483467 0.483467 0.483467
0.561196 0.561196 0.561196
0.636316 0.636316 0.636316
0.569329 0.569329 0.569329
0.654139 0.654139 0.654139
0.740291 0.740291 0.740291
0.808164 0.808164 0.808164
0.862516 0.862516 0.862516
0.814588 0.814588 0.814588
0.872053 0.872053 0.872053
0.919921 0.919921 0.919921
0.954314 0.954314 0.954314
0.987366 0.987366 0.987366
0 0 0
0.00831617 0.00831617 0.00831617
0.0507515 0.0507515 0.0507515
0.0847486 0.0847486 0.0847486
0.127565 0.127565 0.127565
0.11812 0.11812 0.11812
0.175769 0.175769 0.175769
0.242924 0.242924 0.242924
0.30631 0.30631 0.30631
0.380987 0.380987 0.380987
0.340215 0.340215 0.340215
0.422858 0.422858 0.422858
0.510628 0.510628 0.510628
0.587243 0.587243 0.587243
0.663096 0.663096 0.663096
0.596155 0.596155 0.596155
0.681468 0.681468 0.681468
0.765179 0.765179 0.765179
0.828443 0.828443 0.828443
0.878599 0.878599 0.878599
0.833417 0.833417 0.833417
0.886778 0.886778 0.886778
0.932158 0.932158 0.932158
0.965606 0.965606 0.965606
0.999161 0.999161 0.999161
