filters/09_Dji LUTs_B&W.cube
TITLE "Generated by Resolve"
LUT_3D_SIZE 9
0 0 0
0 0 0
0 0 0
0 0 0
0.00311284 0.00311284 0.00311284
0.0171664 0.0171664 0.0171664
0.0300145 0.0300145 0.0300145
0.0450904 0.0450904 0.0450904
0.0636149 0.0636149 0.0636149
0 0 0
0.0114748 0.0114748 0.0114748
0.0320897 0.0320897 0.0320897
0.0534524 0.0534524 0.0534524
0.0749065 0.0749065 0.0749065
0.0920882 0.0920882 0.0920882
0.108995 0.108995 0.108995
0.129259 0.129259 0.129259
0.154147 0.154147 0.154147
0.0621958 0.0621958 0.0621958
0.0848554 0.0848554 0.0848554
0.109087 0.109087 0.109087
0.135134 0.135134 0.135134
0.162493 0.162493 0.162493
0.186389 0.186389 0.186389
0.210925 0.210925 0.210925
0.239307 0.239307 0.239307
0.272755 0.272755 0.272755
0.144961 0.144961 0.144961
0.173709 0.173709 0.173709
0.204715 0.204715 0.204715
0.238529 0.238529 0.238529
0.274632 0.274632 0.274632
0.307836 0.307836 0.307836
0.341451 0.341451 0.341451
0.377844 0.377844 0.377844
0.417227 0.417227 0.417227
0.241138 0.241138 0.241138
0.276387 0.276387 0.276387
0.314183 0.314183 0.314183
0.354864 0.354864 0.354864
0.398032 0.398032 0.398032
0.437629 0.437629 0.437629
0.475837 0.475837 0.475837
0.51426 0.51426 0.51426
0.55259 0.55259 0.55259
0.353841 0.353841 0.353841
0.39559 0.39559 0.39559
0.438376 0.438376 0.438376
0.482429 0.482429 0.482429
0.527321 0.527321 0.527321
0.567041 0.567041 0.567041
0.604227 0.604227 0.604227
0.64239 0.64239 0.64239
0.680949 0.680949 0.680949
0.483101 0.483101 0.483101
0.525994 0.525994 0.525994
0.568307 0.568307 0.568307
0.611444 0.611444 0.611444
0.656046 0.656046 0.656046
0.69575 0.69575 0.69575
0.732876 0.732876 0.732876
0.768078 0.768078 0.768078
0.800534 0.800534 0.800534
0.614664 0.614664 0.614664
0.657603 0.657603 0.657603
0.700465 0.700465 0.700465
0.74255 0.74255 0.74255
0.781628 0.781628 0.781628
0.812802 0.812802 0.812802
0.840467 0.840467 0.840467
0.865187 0.865187 0.865187
0.887312 0.887312 0.887312
0.744961 0.744961 0.744961
0.782422 0.782422 0.782422
0.816648 0.816648 0.816648
0.847974 0.847974 0.847974
0.874754 0.874754 0.874754
0.895644 0.895644 0.895644
0.914488 0.914488 0.914488
0.93196 0.93196 0.93196
0.94873 0.94873 0.94873
0 0 0
0 0 0
0 0 0
0 0 0
0.0101015 0.0101015 0.0101015
0.0243229 0.0243229 0.0243229
0.0374304 0.0374304 0.0374304
0.0528725 0.0528725 0.0528725
0.07187 0.07187 0.07187
0 0 0
0.0185397 0.0185397 0.0185397
0.0393835 0.0393835 0.0393835
0.0610208 0.0610208 0.0610208
0.082887 0.082887 0.082887
0.100557 0.100557 0.100557
0.118135 0.118135 0.118135
0.139178 0.139178 0.139178
0.164889 0.164889 0.164889
0.0699168 0.0699168 0.0699168
0.0930495 0.0930495 0.0930495
0.117861 0.117861 0.117861
0.144656 0.144656 0.144656
0.172808 0.172808 0.172808
0.197482 0.197482 0.197482
0.222904 0.222904 0.222904
0.252201 0.252201 0.252201
0.28661 0.28661 0.28661
0.154696 0.154696 0.154696
0.184253 0.184253 0.184253
0.216114 0.216114 0.216114
0.250797 0.250797 0.250797
0.287755 0.287755 0.287755
0.321706 0.321706 0.321706
0.356054 0.356054 0.356054
0.392966 0.392966 0.392966
0.432639 0.432639 0.432639
0.253254 0.253254 0.253254
0.289372 0.289372 0.289372
0.327947 0.327947 0.327947
0.369238 0.369238 0.369238
0.412711 0.412711 0.412711
0.452338 0.452338 0.452338
0.490639 0.490639 0.490639
0.529015 0.529015 0.529015
0.567102 0.567102 0.567102
0.368399 0.368399 0.368399
0.410529 0.410529 0.410529
0.453529 0.453529 0.453529
0.497612 0.497612 0.497612
0.542229 0.542229 0.542229
0.58143 0.58143 0.58143
0.61886 0.61886 0.61886
0.657191 0.657191 0.657191
0.695659 0.695659 0.695659
0.498238 0.498238 0.498238
0.540932 0.540932 0.540932
0.583001 0.583001 0.583001
0.626535 0.626535 0.626535
0.671107 0.671107 0.671107
0.710307 0.710307 0.710307
0.746807 0.746807 0.746807
0.781079 0.781079 0.781079
0.812406 0.812406 0.812406
0.629816 0.629816 0.629816
0.67274 0.67274 0.67274
0.71519 0.71519 0.71519
0.756512 0.756512 0.756512
0.794339 0.794339 0.794339
0.824231 0.824231 0.824231
0.850797 0.850797 0.850797
0.874495 0.874495 0.874495
0.895735 0.895735 0.895735
0.758541 0.758541 0.758541
0.794797 0.794797 0.794797
0.827832 0.827832 0.827832
0.858 0.858 0.858
0.883711 0.883711 0.883711
0.903792 0.903792 0.903792
0.922057 0.922057 0.922057
0.939162 0.939162 0.939162
0.955718 0.955718 0.955718
0 0 0
0 0 0
0 0 0
0 0 0
0.0171664 0.0171664 0.0171664
0.031632 0.031632 0.031632
0.0450446 0.0450446 0.0450446
0.0608835 0.0608835 0.0608835
0.0803845 0.0803845 0.0803845
0.0053254 0.0053254 0.0053254
0.0256657 0.0256657 0.0256657
0.0467536 0.0467536 0.0467536
0.0687572 0.0687572 0.0687572
0.0910964 0.0910964 0.0910964
0.109316 0.109316 0.109316
0.127611 0.127611 0.127611
0.149462 0.149462 0.149462
0.175998 0.175998 0.175998
0.077821 0.077821 0.077821
0.101457 0.101457 0.101457
0.126894 0.126894 0.126894
0.154498 0.154498 0.154498
0.183474 0.183474 0.183474
0.208942 0.208942 0.208942
0.235264 0.235264 0.235264
0.265522 0.265522 0.265522
0.300847 0.300847 0.300847
0.164797 0.164797 0.164797
0.195163 0.195163 0.195163
0.227893 0.227893 0.227893
0.263478 0.263478 0.263478
0.301289 0.301289 0.301289
0.335943 0.335943 0.335943
0.370962 0.370962 0.370962
0.408331 0.408331 0.408331
0.448218 0.448218 0.448218
0.265827 0.265827 0.265827
0.302815 0.302815 0.302815
0.342123 0.342123 0.342123
0.383948 0.383948 0.383948
0.427695 0.427695 0.427695
0.467308 0.467308 0.467308
0.505653 0.505653 0.505653
0.543908 0.543908 0.543908
0.581735 0.581735 0.581735
0.383276 0.383276 0.383276
0.425727 0.425727 0.425727
0.468864 0.468864 0.468864
0.512917 0.512917 0.512917
0.557244 0.557244 0.557244
0.595972 0.595972 0.595972
0.633799 0.633799 0.633799
0.672221 0.672221 0.672221
0.710414 0.710414 0.710414
0.513497 0.513497 0.513497
0.555947 0.555947 0.555947
0.598047 0.598047 0.598047
0.641871 0.641871 0.641871
0.686244 0.686244 0.686244
0.72488 0.72488 0.72488
0.760662 0.760662 0.760662
0.793896 0.793896 0.793896
0.824048 0.824048 0.824048
0.645167 0.645167 0.645167
0.687907 0.687907 0.687907
0.729839 0.729839 0.729839
0.77026 0.77026 0.77026
0.80679 0.80679 0.80679
0.835462 0.835462 0.835462
0.860945 0.860945 0.860945
0.883665 0.883665 0.883665
0.904082 0.904082 0.904082
0.771862 0.771862 0.771862
0.806851 0.806851 0.806851
0.838682 0.838682 0.838682
0.86772 0.86772 0.86772
0.892439 0.892439 0.892439
0.911879 0.911879 0.911879
0.929671 0.929671 0.929671
0.946441 0.946441 0.946441
0.96286 0.96286 0.96286
0 0 0
0 0 0
0 0 0
0.00402838 0.00402838 0.00402838
0.0241703 0.0241703 0.0241703
0.0390631 0.0390631 0.0390631
0.0528725 0.0528725 0.0528725
0.0691539 0.0691539 0.0691539
0.0892042 0.0892042 0.0892042
0.0121004 0.0121004 0.0121004
0.0325933 0.0325933 0.0325933
0.0539712 0.0539712 0.0539712
0.0763867 0.0763867 0.0763867
0.099321 0.099321 0.099321
0.118318 0.118318 0.118318
0.137438 0.137438 0.137438
0.160098 0.160098 0.160098
0.187488 0.187488 0.187488
0.0856641 0.0856641 0.0856641
0.109819 0.109819 0.109819
0.135958 0.135958 0.135958
0.164355 0.164355 0.164355
0.194232 0.194232 0.194232
0.220661 0.220661 0.220661
0.247944 0.247944 0.247944
0.279164 0.279164 0.279164
0.315312 0.315312 0.315312
0.175174 0.175174 0.175174
0.206363 0.206363 0.206363
0.239918 0.239918 0.239918
0.276371 0.276371 0.276371
0.315084 0.315084 0.315084
0.350469 0.350469 0.350469
0.386114 0.386114 0.386114
0.42385 0.42385 0.42385
0.463844 0.463844 0.463844
0.279149 0.279149 0.279149
0.316899 0.316899 0.316899
0.356786 0.356786 0.356786
0.399039 0.399039 0.399039
0.442985 0.442985 0.442985
0.482658 0.482658 0.482658
0.521004 0.521004 0.521004
0.55906 0.55906 0.55906
0.596506 0.596506 0.596506
0.398718 0.398718 0.398718
0.441367 0.441367 0.441367
0.48452 0.48452 0.48452
0.528405 0.528405 0.528405
0.572351 0.572351 0.572351
0.611002 0.611002 0.611002
0.649119 0.649119 0.649119
0.68748 0.68748 0.68748
0.725216 0.725216 0.725216
0.529076 0.529076 0.529076
0.57116 0.57116 0.57116
0.613458 0.613458 0.613458
0.657343 0.657343 0.657343
0.701396 0.701396 0.701396
0.739467 0.739467 0.739467
0.774456 0.774456 0.774456
0.806577 0.806577 0.806577
0.835523 0.835523 0.835523
0.660655 0.660655 0.660655
0.702937 0.702937 0.702937
0.744045 0.744045 0.744045
0.783337 0.783337 0.783337
0.818586 0.818586 0.818586
0.846235 0.846235 0.846235
0.870817 0.870817 0.870817
0.892668 0.892668 0.892668
0.912398 0.912398 0.912398
0.784405 0.784405 0.784405
0.81799 0.81799 0.81799
0.848539 0.848539 0.848539
0.876493 0.876493 0.876493
0.900511 0.900511 0.900511
0.919585 0.919585 0.919585
0.937118 0.937118 0.937118
0.95378 0.95378 0.95378
0.970153 0.970153 0.970153
0 0 0
0 0 0
0 0 0
0.00921645 0.00921645 0.00921645
0.0295109 0.0295109 0.0295109
0.0451972 0.0451972 0.0451972
0.0596933 0.0596933 0.0596933
0.0766613 0.0766613 0.0766613
0.0973068 0.0973068 0.0973068
0.0170443 0.0170443 0.0170443
0.0377356 0.0377356 0.0377356
0.0594034 0.0594034 0.0594034
0.0822614 0.0822614 0.0822614
0.105959 0.105959 0.105959
0.12604 0.12604 0.12604
0.146181 0.146181 0.146181
0.169787 0.169787 0.169787
0.19794 0.19794 0.19794
0.0918593 0.0918593 0.0918593
0.116533 0.116533 0.116533
0.143359 0.143359 0.143359
0.172549 0.172549 0.172549
0.203403 0.203403 0.203403
0.230976 0.230976 0.230976
0.259327 0.259327 0.259327
0.291508 0.291508 0.291508
0.328298 0.328298 0.328298
0.184283 0.184283 0.184283
0.21619 0.21619 0.21619
0.250507 0.250507 0.250507
0.2878 0.2878 0.2878
0.327398 0.327398 0.327398
0.363546 0.363546 0.363546
0.399756 0.399756 0.399756
0.437797 0.437797 0.437797
0.47776 0.47776 0.47776
0.291844 0.291844 0.291844
0.330083 0.330083 0.330083
0.370306 0.370306 0.370306
0.412772 0.412772 0.412772
0.45687 0.45687 0.45687
0.496635 0.496635 0.496635
0.534936 0.534936 0.534936
0.572717 0.572717 0.572717
0.609979 0.609979 0.609979
0.413367 0.413367 0.413367
0.455879 0.455879 0.455879
0.498772 0.498772 0.498772
0.542306 0.542306 0.542306
0.585855 0.585855 0.585855
0.624781 0.624781 0.624781
0.663096 0.663096 0.663096
0.701259 0.701259 0.701259
0.738354 0.738354 0.738354
0.543481 0.543481 0.543481
0.585046 0.585046 0.585046
0.627466 0.627466 0.627466
0.671199 0.671199 0.671199
0.714855 0.714855 0.714855
0.752331 0.752331 0.752331
0.786465 0.786465 0.786465
0.817441 0.817441 0.817441
0.845212 0.845212 0.845212
0.67451 0.67451 0.67451
0.716121 0.716121 0.716121
0.756283 0.756283 0.756283
0.794369 0.794369 0.794369
0.828473 0.828473 0.828473
0.855177 0.855177 0.855177
0.878904 0.878904 0.878904
0.900008 0.900008 0.900008
0.919127 0.919127 0.919127
0.794903 0.794903 0.794903
0.827283 0.827283 0.827283
0.856733 0.856733 0.856733
0.883741 0.883741 0.883741
0.907179 0.907179 0.907179
0.925719 0.925719 0.925719
0.943053 0.943053 0.943053
0.959686 0.959686 0.959686
0.976104 0.976104 0.976104
0 0 0
0 0 0
0 0 0
0.0133822 0.0133822 0.0133822
0.033875 0.033875 0.033875
0.0501106 0.0501106 0.0501106
0.0650187 0.0650187 0.0650187
0.0825055 0.0825055 0.0825055
0.103792 0.103792 0.103792
0.021149 0.021149 0.021149
0.0420844 0.0420844 0.0420844
0.0641184 0.0641184 0.0641184
0.0874495 0.0874495 0.0874495
0.111818 0.111818 0.111818
0.132845 0.132845 0.132845
0.153765 0.153765 0.153765
0.178195 0.178195 0.178195
0.207233 0.207233 0.207233
0.097261 0.097261 0.097261
0.122576 0.122576 0.122576
0.150179 0.150179 0.150179
0.180209 0.180209 0.180209
0.212024 0.212024 0.212024
0.24062 0.24062 0.24062
0.269917 0.269917 0.269917
0.302998 0.302998 0.302998
0.340505 0.340505 0.340505
0.192447 0.192447 0.192447
0.225254 0.225254 0.225254
0.260517 0.260517 0.260517
0.298756 0.298756 0.298756
0.339208 0.339208 0.339208
0.376028 0.376028 0.376028
0.412695 0.412695 0.412695
0.450996 0.450996 0.450996
0.491066 0.491066 0.491066
0.303304 0.303304 0.303304
0.342245 0.342245 0.342245
0.383001 0.383001 0.383001
0.425834 0.425834 0.425834
0.470115 0.470115 0.470115
0.509911 0.509911 0.509911
0.548089 0.548089 0.548089
0.585595 0.585595 0.585595
0.623087 0.623087 0.623087
0.42652 0.42652 0.42652
0.469169 0.469169 0.469169
0.512016 0.512016 0.512016
0.555352 0.555352 0.555352
0.598672 0.598672 0.598672
0.637995 0.637995 0.637995
0.676371 0.676371 0.676371
0.71426 0.71426 0.71426
0.750759 0.750759 0.750759
0.556435 0.556435 0.556435
0.598062 0.598062 0.598062
0.640742 0.640742 0.640742
0.684398 0.684398 0.684398
0.727657 0.727657 0.727657
0.764431 0.764431 0.764431
0.797513 0.797513 0.797513
0.827329 0.827329 0.827329
0.854032 0.854032 0.854032
0.687587 0.687587 0.687587
0.728664 0.728664 0.728664
0.767941 0.767941 0.767941
0.804837 0.804837 0.804837
0.837858 0.837858 0.837858
0.8636 0.8636 0.8636
0.886366 0.886366 0.886366
0.906691 0.906691 0.906691
0.925246 0.925246 0.925246
0.804898 0.804898 0.804898
0.836133 0.836133 0.836133
0.86453 0.86453 0.86453
0.890608 0.890608 0.890608
0.913619 0.913619 0.913619
0.93167 0.93167 0.93167
0.948714 0.948714 0.948714
0.965209 0.965209 0.965209
0.981689 0.981689 0.981689
0 0 0
0 0 0
0 0 0
0.0177615 0.0177615 0.0177615
0.0386053 0.0386053 0.0386053
0.0554055 0.0554055 0.0554055
0.0707561 0.0707561 0.0707561
0.088777 0.088777 0.088777
0.110796 0.110796 0.110796
0.0256199 0.0256199 0.0256199
0.0469673 0.0469673 0.0469673
0.069276 0.069276 0.069276
0.0931106 0.0931106 0.0931106
0.118196 0.118196 0.118196
0.140139 0.140139 0.140139
0.161868 0.161868 0.161868
0.187152 0.187152 0.187152
0.217075 0.217075 0.217075
0.103151 0.103151 0.103151
0.12929 0.12929 0.12929
0.157595 0.157595 0.157595
0.188479 0.188479 0.188479
0.221241 0.221241 0.221241
0.250828 0.250828 0.250828
0.281071 0.281071 0.281071
0.315007 0.315007 0.315007
0.35317 0.35317 0.35317
0.20116 0.20116 0.20116
0.234882 0.234882 0.234882
0.271077 0.271077 0.271077
0.310262 0.310262 0.310262
0.351476 0.351476 0.351476
0.388861 0.388861 0.388861
0.42591 0.42591 0.42591
0.464424 0.464424 0.464424
0.504509 0.504509 0.504509
0.315129 0.315129 0.315129
0.354711 0.354711 0.354711
0.395926 0.395926 0.395926
0.439063 0.439063 0.439063
0.483467 0.483467 0.483467
0.523201 0.523201 0.523201
0.561196 0.561196 0.561196
0.598459 0.598459 0.598459
0.636316 0.636316 0.636316
0.439841 0.439841 0.439841
0.482551 0.482551 0.482551
0.525322 0.525322 0.525322
0.568399 0.568399 0.568399
0.611749 0.611749 0.611749
0.651286 0.651286 0.651286
0.689601 0.689601 0.689601
0.727108 0.727108 0.727108
0.762905 0.762905 0.762905
0.569329 0.569329 0.569329
0.611307 0.611307 0.611307
0.654139 0.654139 0.654139
0.697597 0.697597 0.697597
0.740291 0.740291 0.740291
0.776211 0.776211 0.776211
0.808164 0.808164 0.808164
0.836866 0.836866 0.836866
0.862516 0.862516 0.862516
0.700618 0.700618 0.700618
0.741024 0.741024 0.741024
0.779293 0.779293 0.779293
0.814969 0.814969 0.814969
0.846906 0.846906 0.846906
0.871702 0.871702 0.871702
0.893538 0.893538 0.893538
0.913176 0.913176 0.913176
0.931243 0.931243 0.931243
0.814588 0.814588 0.814588
0.844694 0.844694 0.844694
0.872053 0.872053 0.872053
0.897292 0.897292 0.897292
0.919921 0.919921 0.919921
0.93753 0.93753 0.93753
0.954314 0.954314 0.954314
0.970764 0.970764 0.970764
0.987366 0.987366 0.987366
0 0 0
0 0 0
0.00254826 0.00254826 0.00254826
0.0232853 0.0232853 0.0232853
0.0444343 0.0444343 0.0444343
0.061677 0.061677 0.061677
0.0775006 0.0775006 0.0775006
0.0961166 0.0961166 0.0961166
0.118898 0.118898 0.118898
0.0312352 0.0312352 0.0312352
0.0529183 0.0529183 0.0529183
0.0756542 0.0756542 0.0756542
0.100038 0.100038 0.100038
0.125826 0.125826 0.125826
0.148547 0.148547 0.148547
0.171115 0.171115 0.171115
0.197238 0.197238 0.197238
0.228077 0.228077 0.228077
0.110323 0.110323 0.110323
0.13724 0.13724 0.13724
0.166369 0.166369 0.166369
0.198123 0.198123 0.198123
0.231769 0.231769 0.231769
0.262196 0.262196 0.262196
0.2934 0.2934 0.2934
0.328099 0.328099 0.328099
0.366873 0.366873 0.366873
0.211078 0.211078 0.211078
0.245686 0.245686 0.245686
0.282795 0.282795 0.282795
0.322835 0.322835 0.322835
0.364645 0.364645 0.364645
0.402396 0.402396 0.402396
0.43978 0.43978 0.43978
0.478447 0.478447 0.478447
0.518441 0.518441 0.518441
0.327504 0.327504 0.327504
0.367666 0.367666 0.367666
0.409308 0.409308 0.409308
0.452674 0.452674 0.452674
0.497032 0.497032 0.497032
0.536522 0.536522 0.536522
0.574273 0.574273 0.574273
0.611566 0.611566 0.611566
0.649699 0.649699 0.649699
0.453498 0.453498 0.453498
0.496239 0.496239 0.496239
0.538857 0.538857 0.538857
0.581613 0.581613 0.581613
0.625162 0.625162 0.625162
0.664698 0.664698 0.664698
0.702831 0.702831 0.702831
0.739849 0.739849 0.739849
0.774807 0.774807 0.774807
0.582605 0.582605 0.582605
0.624933 0.624933 0.624933
0.667796 0.667796 0.667796
0.710933 0.710933 0.710933
0.75288 0.75288 0.75288
0.787717 0.787717 0.787717
0.818509 0.818509 0.818509
0.846113 0.846113 0.846113
0.870741 0.870741 0.870741
0.713756 0.713756 0.713756
0.753384 0.753384 0.753384
0.790524 0.790524 0.790524
0.824979 0.824979 0.824979
0.855772 0.855772 0.855772
0.879545 0.879545 0.879545
0.900511 0.900511 0.900511
0.919554 0.919554 0.919554
0.937194 0.937194 0.937194
0.824125 0.824125 0.824125
0.853162 0.853162 0.853162
0.879515 0.879515 0.879515
0.90396 0.90396 0.90396
0.926085 0.926085 0.926085
0.943374 0.943374 0.943374
0.959976 0.959976 0.959976
0.976425 0.976425 0.976425
0.99321 0.99321 0.99321
0 0 0
0 0 0
0.00831617 0.00831617 0.00831617
0.0292668 0.0292668 0.0292668
0.0507515 0.0507515 0.0507515
0.0683909 0.0683909 0.0683909
0.0847486 0.0847486 0.0847486
0.104021 0.104021 0.104021
0.127565 0.127565 0.127565
0.0373388 0.0373388 0.0373388
0.0593881 0.0593881 0.0593881
0.0825971 0.0825971 0.0825971
0.107561 0.107561 0.107561
0.134096 0.134096 0.134096
0.157549 0.157549 0.157549
0.180941 0.180941 0.180941
0.20795 0.20795 0.20795
0.239704 0.239704 0.239704
0.11812 0.11812 0.11812
0.14583 0.14583 0.14583
0.175769 0.175769 0.175769
0.208423 0.208423 0.208423
0.242924 0.242924 0.242924
0.274174 0.274174 0.274174
0.30631 0.30631 0.30631
0.341726 0.341726 0.341726
0.380987 0.380987 0.380987
0.221607 0.221607 0.221607
0.257099 0.257099 0.257099
0.295079 0.295079 0.295079
0.335897 0.335897 0.335897
0.37818 0.37818 0.37818
0.41619 0.41619 0.41619
0.453864 0.453864 0.453864
0.492592 0.492592 0.492592
0.532433 0.532433 0.532433
0.340215 0.340215 0.340215
0.380896 0.380896 0.380896
0.422858 0.422858 0.422858
0.466407 0.466407 0.466407
0.510628 0.510628 0.510628
0.549767 0.549767 0.549767
0.587243 0.587243 0.587243
0.624796 0.624796 0.624796
0.663096 0.663096 0.663096
0.467292 0.467292 0.467292
0.509987 0.509987 0.509987
0.552377 0.552377 0.552377
0.594949 0.594949 0.594949
0.638712 0.638712 0.638712
0.678065 0.678065 0.678065
0.715923 0.715923 0.715923
0.752316 0.752316 0.752316
0.786343 0.786343 0.786343
0.596155 0.596155 0.596155
0.638575 0.638575 0.638575
0.681468 0.681468 0.681468
0.724178 0.724178 0.724178
0.765179 0.765179 0.765179
0.798795 0.798795 0.798795
0.828443 0.828443 0.828443
0.854978 0.854978 0.854978
0.878599 0.878599 0.878599
0.726726 0.726726 0.726726
0.765438 0.765438 0.765438
0.801389 0.801389 0.801389
0.834653 0.834653 0.834653
0.864302 0.864302 0.864302
0.887053 0.887053 0.887053
0.907271 0.907271 0.907271
0.92575 0.92575 0.92575
0.943023 0.943023 0.943023
0.833417 0.833417 0.833417
0.861387 0.861387 0.861387
0.886778 0.886778 0.886778
0.910536 0.910536 0.910536
0.932158 0.932158 0.932158
0.949111 0.949111 0.949111
0.965606 0.965606 0.965606
0.982132 0.982132 0.982132
0.999161 0.999161 0.999161
