filters/09_Vintage_LUTs_Cold Shade.cube
LUT_3D_SIZE 6
0.027152 0.061402 0.098645
0.112419 0.061402 0.098645
0.295850 0.061402 0.098645
0.540589 0.061402 0.098645
0.797723 0.061402 0.098645
0.981240 0.061402 0.098645
0.027152 0.154055 0.098645
0.107300 0.154055 0.098645
0.295850 0.165234 0.098645
0.540589 0.183312 0.098645
0.797723 0.193189 0.098645
0.981240 0.193459 0.098645
0.027152 0.314902 0.098645
0.122300 0.314902 0.098645
0.296498 0.314902 0.098645
0.540589 0.352800 0.098645
0.797723 0.376264 0.098645
0.981240 0.374684 0.098645
0.027152 0.535404 0.098645
0.142819 0.535404 0.098645
0.340892 0.535404 0.098645
0.543576 0.535404 0.098645
0.797723 0.568826 0.098645
0.981240 0.567710 0.098645
0.027152 0.775938 0.098645
0.154407 0.775938 0.098645
0.364106 0.775938 0.098645
0.578770 0.775938 0.098645
0.798690 0.775927 0.098645
0.981240 0.772267 0.098645
0.027152 0.993833 0.098645
0.154171 0.993833 0.098645
0.361368 0.993833 0.098645
0.574098 0.993833 0.098645
0.792912 0.993833 0.098645
0.981239 0.993833 0.098645
0.027152 0.061402 0.212476
0.105999 0.061402 0.212476
0.295850 0.061402 0.227249
0.540589 0.061402 0.249935
0.797723 0.061402 0.264274
0.981240 0.061402 0.263178
0.027152 0.153115 0.212476
0.112419 0.153443 0.212476
0.295850 0.154055 0.212541
0.540589 0.154055 0.213166
0.797722 0.154055 0.214145
0.981240 0.154055 0.214187
0.027152 0.314902 0.227596
0.112419 0.314902 0.213357
0.297477 0.314902 0.212476
0.540589 0.345599 0.212476
0.797722 0.363740 0.212476
0.981240 0.361579 0.212476
0.027152 0.535404 0.251063
0.112419 0.535404 0.215046
0.332643 0.535404 0.212476
0.543620 0.535404 0.212476
0.797722 0.564671 0.212476
0.981240 0.561473 0.212476
0.027152 0.775938 0.264050
0.112419 0.775938 0.217847
0.350131 0.775938 0.212476
0.573897 0.775938 0.212476
0.797722 0.774859 0.212476
0.981240 0.769750 0.212476
0.027152 0.993833 0.263195
0.112419 0.993833 0.220144
0.346220 0.993833 0.212476
0.567331 0.993833 0.212476
0.789364 0.993833 0.212476
0.981203 0.993833 0.212476
0.027152 0.061402 0.410558
0.121157 0.061402 0.410558
0.296488 0.061402 0.410558
0.540589 0.061402 0.456227
0.797723 0.061402 0.484745
0.981240 0.061402 0.484313
0.027152 0.165526 0.410558
0.112419 0.155111 0.410558
0.297464 0.154055 0.410558
0.540589 0.154055 0.448072
0.797722 0.154055 0.469287
0.981240 0.154055 0.469308
0.027152 0.314902 0.410570
0.112419 0.314902 0.410575
0.295850 0.314902 0.410560
0.540589 0.314896 0.410558
0.797723 0.315012 0.410558
0.981240 0.315014 0.410558
0.027152 0.535404 0.458584
0.112419 0.535404 0.451850
0.295850 0.535404 0.414408
0.542477 0.535404 0.410558
0.797723 0.547760 0.410558
0.981240 0.540905 0.410558
0.027152 0.775938 0.485308
0.112419 0.775938 0.472502
0.295850 0.775938 0.417790
0.555035 0.775938 0.410558
0.798690 0.776179 0.410558
0.981240 0.761476 0.410558
0.027152 0.993833 0.484344
0.112419 0.993833 0.471413
0.295850 0.993833 0.419923
0.544217 0.993833 0.410558
0.780587 0.993833 0.410558
0.981083 0.993833 0.410558
0.027152 0.061402 0.648973
0.141443 0.061402 0.648973
0.338703 0.061402 0.648973
0.540589 0.061402 0.649352
0.797723 0.061402 0.689073
0.981240 0.061402 0.690842
0.027152 0.183194 0.648973
0.112419 0.155608 0.648973
0.330937 0.154055 0.648973
0.540589 0.154055 0.649333
0.797722 0.154055 0.685558
0.981240 0.154055 0.684684
0.027152 0.352539 0.648973
0.112419 0.345843 0.648973
0.295850 0.317491 0.648973
0.540589 0.314902 0.649186
0.797723 0.314902 0.665538
0.981240 0.314902 0.659024
0.027152 0.535404 0.652976
0.112419 0.535404 0.653052
0.295850 0.535404 0.651757
0.540593 0.535404 0.648973
0.797723 0.536699 0.648973
0.981240 0.538773 0.648973
0.027152 0.775938 0.690821
0.112419 0.775938 0.687203
0.295850 0.775938 0.669027
0.540829 0.775938 0.648973
0.797723 0.775366 0.648973
0.981240 0.760474 0.648973
0.027152 0.993833 0.690867
0.112419 0.993833 0.684777
0.295850 0.993833 0.663225
0.541020 0.993833 0.648973
0.781960 0.993833 0.648973
0.980868 0.993833 0.648973
0.027152 0.061402 0.857301
0.151514 0.061402 0.857301
0.358509 0.061402 0.857301
0.570437 0.061402 0.857301
0.797723 0.061402 0.868493
0.981240 0.061402 0.872177
0.027152 0.191778 0.857301
0.112419 0.157034 0.857301
0.345865 0.154055 0.857301
0.565938 0.154055 0.857301
0.797722 0.154055 0.870558
0.981240 0.154055 0.870003
0.027152 0.370909 0.857301
0.112419 0.360254 0.857301
0.295850 0.319477 0.857301
0.550123 0.314902 0.857301
0.797723 0.314902 0.864797
0.981240 0.314902 0.857885
0.027152 0.561506 0.857301
0.112419 0.557580 0.857301
0.295850 0.544826 0.857301
0.540589 0.536490 0.857301
0.797723 0.535404 0.860888
0.981240 0.535404 0.846682
0.027152 0.775938 0.870342
0.112419 0.775938 0.870308
0.295850 0.775938 0.867476
0.540589 0.775938 0.861546
0.798690 0.774611 0.857301
0.981240 0.778804 0.857301
0.027152 0.993833 0.872216
0.112419 0.993833 0.869912
0.295850 0.993833 0.860001
0.540589 0.993833 0.848679
0.800882 0.993833 0.857301
0.980701 0.993833 0.857301
0.027152 0.061402 1.054878
0.154171 0.061402 1.054878
0.361368 0.061402 1.054878
0.574098 0.061402 1.054878
0.792912 0.061402 1.054878
0.981239 0.061402 1.054878
0.027152 0.193446 1.054878
0.112419 0.157773 1.054878
0.346807 0.154055 1.054878
0.567533 0.154055 1.054878
0.789406 0.154055 1.054878
0.981210 0.154055 1.054878
0.027152 0.374688 1.054878
0.112419 0.363933 1.054878
0.295850 0.322241 1.054879
0.544151 0.314902 1.054879
0.780583 0.314902 1.054879
0.981082 0.314902 1.054879
0.027152 0.567728 1.054878
0.112419 0.562836 1.054878
0.295850 0.543956 1.054879
0.540589 0.538388 1.054878
0.780727 0.535404 1.054878
0.980826 0.535404 1.054878
0.027152 0.772314 1.054878
0.112419 0.770426 1.054878
0.295850 0.762588 1.054879
0.540589 0.760224 1.054878
0.799495 0.774958 1.054878
0.980586 0.775938 1.054878
0.027152 0.993833 1.054878
0.112419 0.993833 1.054878
0.295850 0.993833 1.054879
0.540589 0.993833 1.054878
0.797723 0.993833 1.054878
0.981240 0.993833 1.054878
