filters/09_Vintage_LUTs_Cold Shade.cube
LUT_3D_SIZE 16
0.027152 0.061402 0.098645
0.043138 0.061402 0.098645
0.071513 0.061402 0.098645
0.112419 0.061402 0.098645
0.163688 0.061402 0.098645
0.226623 0.061402 0.098645
0.295850 0.061402 0.098645
0.372135 0.061402 0.098645
0.454979 0.061402 0.098645
0.540589 0.061402 0.098645
0.627726 0.061402 0.098645
0.714697 0.061402 0.098645
0.797723 0.061402 0.098645
0.880655 0.061402 0.098645
0.951847 0.061402 0.098645
0.981240 0.061402 0.098645
0.027152 0.083692 0.098645
0.041049 0.083692 0.098645
0.071513 0.077098 0.098645
0.111761 0.076156 0.098645
0.163688 0.076180 0.098645
0.226623 0.076649 0.098645
0.295850 0.078064 0.098645
0.372135 0.079478 0.098645
0.454979 0.080992 0.098645
0.540589 0.082355 0.098645
0.627726 0.082875 0.098645
0.714697 0.084243 0.098645
0.797723 0.084580 0.098645
0.880655 0.085820 0.098645
0.951847 0.085524 0.098645
0.981240 0.084880 0.098645
0.027152 0.115721 0.098645
0.036526 0.115721 0.098645
0.067689 0.115721 0.098645
0.110907 0.112885 0.098645
0.163688 0.111925 0.098645
0.226623 0.115732 0.098645
0.295850 0.118532 0.098645
0.372135 0.122334 0.098645
0.454979 0.126339 0.098645
0.540589 0.129874 0.098645
0.627726 0.132952 0.098645
0.714697 0.135541 0.098645
0.797723 0.136041 0.098645
0.880655 0.138174 0.098645
0.951847 0.137934 0.098645
0.981240 0.136287 0.098645
0.027152 0.154055 0.098645
0.035576 0.154055 0.098645
0.063939 0.154055 0.098645
0.107300 0.154055 0.098645
0.163688 0.156736 0.098645
0.226623 0.160903 0.098645
0.295850 0.165234 0.098645
0.372135 0.171301 0.098645
0.454979 0.177680 0.098645
0.540589 0.183312 0.098645
0.627726 0.188091 0.098645
0.714697 0.190888 0.098645
0.797723 0.193189 0.098645
0.880655 0.196299 0.098645
0.951847 0.196021 0.098645
0.981240 0.193459 0.098645
0.027152 0.200007 0.098645
0.035740 0.200007 0.098645
0.064871 0.200007 0.098645
0.108647 0.200007 0.098645
0.161442 0.200669 0.098645
0.226623 0.208073 0.098645
0.295850 0.213940 0.098645
0.372135 0.222251 0.098645
0.454979 0.231002 0.098645
0.540589 0.238671 0.098645
0.627726 0.245219 0.098645
0.714697 0.250051 0.098645
0.797723 0.252307 0.098645
0.880655 0.255410 0.098645
0.951847 0.256102 0.098645
0.981240 0.252567 0.098645
0.027152 0.253690 0.098645
0.036403 0.253690 0.098645
0.066744 0.253690 0.098645
0.112963 0.253690 0.098645
0.169290 0.254227 0.098645
0.225564 0.254370 0.098645
0.295850 0.263704 0.098645
0.372135 0.274300 0.098645
0.454979 0.285436 0.098645
0.540589 0.295206 0.098645
0.627726 0.303479 0.098645
0.714697 0.309457 0.098645
0.797723 0.313721 0.098645
0.880655 0.317778 0.098645
0.951847 0.317522 0.098645
0.981240 0.313013 0.098645
0.027152 0.314902 0.098645
0.037326 0.314902 0.098645
0.070545 0.314902 0.098645
0.122300 0.314902 0.098645
0.178885 0.314902 0.098645
0.237448 0.314895 0.098645
0.296498 0.314902 0.098645
0.372135 0.327275 0.098645
0.454979 0.340880 0.098645
0.540589 0.352800 0.098645
0.627726 0.362747 0.098645
0.714697 0.370853 0.098645
0.797723 0.376264 0.098645
0.880655 0.379403 0.098645
0.951847 0.380104 0.098645
0.981240 0.374684 0.098645
0.027152 0.383075 0.098645
0.038378 0.383075 0.098645
0.074422 0.383075 0.098645
0.130745 0.383075 0.098645
0.189982 0.383075 0.098645
0.251498 0.383075 0.098645
0.312331 0.383075 0.098645
0.374276 0.383075 0.098645
0.454979 0.397215 0.098645
0.540589 0.411467 0.098645
0.627726 0.423857 0.098645
0.714697 0.432380 0.098645
0.797723 0.439302 0.098645
0.880655 0.443245 0.098645
0.951847 0.444073 0.098645
0.981240 0.437536 0.098645
0.027152 0.457522 0.098645
0.039469 0.457522 0.098645
0.078365 0.457522 0.098645
0.136906 0.457522 0.098645
0.199716 0.457522 0.098645
0.264026 0.457522 0.098645
0.327864 0.457522 0.098645
0.392504 0.457522 0.098645
0.457812 0.457522 0.098645
0.540589 0.471281 0.098645
0.628497 0.486086 0.098645
0.714697 0.496040 0.098645
0.797723 0.502834 0.098645
0.880655 0.509499 0.098645
0.951847 0.509522 0.098645
0.981240 0.501845 0.098645
0.027152 0.535404 0.098645
0.040420 0.535404 0.098645
0.081368 0.535404 0.098645
0.142819 0.535404 0.098645
0.207942 0.535404 0.098645
0.273531 0.535404 0.098645
0.340892 0.535404 0.098645
0.407745 0.535404 0.098645
0.475327 0.535404 0.098645
0.543576 0.535404 0.098645
0.628857 0.548747 0.098645
0.714712 0.562101 0.098645
0.797723 0.568826 0.098645
0.880655 0.576306 0.098645
0.951847 0.576447 0.098645
0.981240 0.567710 0.098645
0.027152 0.615452 0.098645
0.041200 0.615452 0.098645
0.084404 0.615452 0.098645
0.148457 0.615452 0.098645
0.215429 0.615452 0.098645
0.283896 0.615452 0.098645
0.351149 0.615452 0.098645
0.419713 0.615452 0.098645
0.489094 0.615452 0.098645
0.559124 0.615452 0.098645
0.629589 0.615452 0.098645
0.714346 0.626889 0.098645
0.797723 0.636124 0.098645
0.880655 0.643425 0.098645
0.951847 0.644699 0.098645
0.981240 0.634826 0.098645
0.027152 0.696128 0.098645
0.041798 0.696128 0.098645
0.086453 0.696128 0.098645
0.150426 0.696128 0.098645
0.221293 0.696128 0.098645
0.289039 0.696128 0.098645
0.358792 0.696128 0.098645
0.428734 0.696128 0.098645
0.499441 0.696128 0.098645
0.570833 0.696128 0.098645
0.642581 0.696128 0.098645
0.714240 0.696128 0.098645
0.797723 0.704640 0.098645
0.880655 0.712542 0.098645
0.951847 0.714188 0.098645
0.981240 0.703032 0.098645
0.027152 0.775938 0.098645
0.042223 0.775938 0.098645
0.088517 0.775938 0.098645
0.154407 0.775938 0.098645
0.224740 0.775938 0.098645
0.294413 0.775938 0.098645
0.364106 0.775938 0.098645
0.434932 0.775938 0.098645
0.506516 0.775938 0.098645
0.578770 0.775938 0.098645
0.651447 0.775938 0.098645
0.724867 0.775938 0.098645
0.798690 0.775927 0.098645
0.880655 0.783803 0.098645
0.951847 0.784503 0.098645
0.981240 0.772267 0.098645
0.027152 0.851296 0.098645
0.042449 0.851296 0.098645
0.088517 0.851296 0.098645
0.155844 0.851296 0.098645
0.226423 0.851296 0.098645
0.295549 0.851296 0.098645
0.366765 0.851296 0.098645
0.438031 0.851296 0.098645
0.510050 0.851296 0.098645
0.582786 0.851296 0.098645
0.655855 0.851296 0.098645
0.728750 0.851296 0.098645
0.805375 0.852171 0.098645
0.880655 0.851943 0.098645
0.951847 0.855003 0.098645
0.981240 0.842392 0.098645
0.027152 0.890340 0.098645
0.042347 0.890340 0.098645
0.088517 0.890340 0.098645
0.156825 0.890340 0.098645
0.225009 0.890340 0.098645
0.294805 0.890340 0.098645
0.365430 0.890340 0.098645
0.436310 0.890340 0.098645
0.508035 0.890340 0.098645
0.580421 0.890340 0.098645
0.653920 0.890340 0.098645
0.727532 0.890340 0.098645
0.801505 0.891164 0.098645
0.875937 0.888714 0.098645
0.951847 0.895955 0.098645
0.981240 0.892543 0.098645
0.027152 0.993833 0.098645
0.042055 0.993833 0.098645
0.087478 0.993833 0.098645
0.154171 0.993833 0.098645
0.221832 0.993833 0.098645
0.291907 0.993833 0.098645
0.361368 0.993833 0.098645
0.431522 0.993833 0.098645
0.502453 0.993833 0.098645
0.574098 0.993833 0.098645
0.645550 0.993833 0.098645
0.719412 0.993833 0.098645
0.792912 0.993833 0.098645
0.865583 0.993833 0.098645
0.939674 0.993833 0.098645
0.981239 0.993833 0.098645
0.027152 0.061402 0.125554
0.040418 0.061402 0.125554
0.071513 0.061402 0.120067
0.111993 0.061402 0.117342
0.163688 0.061402 0.116788
0.226623 0.061402 0.118534
0.295850 0.061402 0.119515
0.372135 0.061402 0.121269
0.454979 0.061402 0.123145
0.540589 0.061402 0.124827
0.627726 0.061402 0.126819
0.714697 0.061402 0.126665
0.797723 0.061402 0.128783
0.880655 0.061402 0.127980
0.951847 0.061402 0.128783
0.981240 0.061402 0.127980
0.027152 0.082782 0.125554
0.043138 0.083559 0.125554
0.071513 0.083728 0.124633
0.112419 0.083559 0.124633
0.163688 0.083692 0.124711
0.226623 0.083692 0.124740
0.295850 0.083692 0.124711
0.372135 0.083692 0.124740
0.454979 0.083692 0.124772
0.540589 0.083692 0.124825
0.627726 0.083692 0.124772
0.714697 0.083692 0.124825
0.797723 0.083692 0.125018
0.880655 0.083692 0.125029
0.951847 0.083692 0.125018
0.981240 0.083692 0.125029
0.027152 0.115721 0.118293
0.043138 0.115721 0.123527
0.070545 0.115721 0.126504
0.112419 0.116668 0.125352
0.163688 0.116953 0.125554
0.226623 0.120065 0.125554
0.295850 0.121669 0.125554
0.372135 0.124785 0.125554
0.454979 0.128008 0.125554
0.540589 0.130871 0.125554
0.627726 0.132731 0.125554
0.714697 0.135593 0.125554
0.797723 0.136397 0.125554
0.880655 0.137877 0.125554
0.951847 0.137340 0.125554
0.981240 0.135992 0.125554
0.027152 0.154055 0.116416
0.043138 0.154055 0.122699
0.069592 0.154055 0.126445
0.109071 0.154055 0.125444
0.163688 0.156381 0.125554
0.226623 0.162196 0.125554
0.295850 0.166777 0.125554
0.372135 0.172610 0.125554
0.454979 0.178627 0.125554
0.540589 0.183869 0.125554
0.627726 0.188105 0.125554
0.714697 0.191448 0.125554
0.797723 0.193804 0.125554
0.880655 0.195208 0.125554
0.951847 0.195695 0.125554
0.981240 0.193316 0.125554
0.027152 0.200007 0.116677
0.043138 0.200007 0.122393
0.071513 0.200007 0.126716
0.112419 0.200007 0.126050
0.162564 0.199408 0.125554
0.226623 0.206824 0.125554
0.295850 0.214559 0.125554
0.372135 0.222925 0.125554
0.454979 0.231547 0.125554
0.540589 0.239005 0.125554
0.627726 0.244811 0.125554
0.714697 0.250385 0.125554
0.797723 0.253049 0.125554
0.880655 0.255335 0.125554
0.951847 0.255895 0.125554
0.981240 0.252489 0.125554
0.027152 0.253690 0.117896
0.043138 0.253690 0.122310
0.073448 0.253690 0.125200
0.118078 0.253690 0.125974
0.170397 0.254235 0.125554
0.226623 0.253685 0.125554
0.295850 0.263713 0.125554
0.372135 0.274569 0.125554
0.454979 0.285716 0.125554
0.540589 0.295417 0.125554
0.627726 0.304697 0.125554
0.714697 0.310598 0.125554
0.797723 0.315482 0.125554
0.880655 0.316764 0.125554
0.951847 0.317380 0.125554
0.981240 0.312959 0.125554
0.027152 0.314902 0.119594
0.043138 0.314902 0.122341
0.076383 0.314902 0.125079
0.124971 0.314902 0.126004
0.181631 0.314902 0.125554
0.239598 0.314814 0.125554
0.297033 0.314902 0.125554
0.372135 0.327163 0.125554
0.454979 0.340963 0.125554
0.540589 0.352926 0.125554
0.627726 0.362862 0.125554
0.714697 0.370994 0.125554
0.797723 0.376201 0.125554
0.880655 0.379405 0.125554
0.951847 0.380005 0.125554
0.981240 0.374686 0.125554
0.027152 0.383075 0.121500
0.043138 0.383075 0.122446
0.079359 0.383075 0.125156
0.133001 0.383075 0.126103
0.190724 0.383075 0.125554
0.252899 0.383075 0.125554
0.313001 0.383075 0.125554
0.374582 0.383075 0.125554
0.454979 0.397152 0.125554
0.540589 0.411509 0.125554
0.627726 0.423814 0.125554
0.714697 0.434316 0.125554
0.797723 0.439226 0.125554
0.880655 0.443205 0.125554
0.951847 0.443997 0.125554
0.981240 0.437496 0.125554
0.027152 0.457522 0.123431
0.043138 0.457522 0.122575
0.082375 0.457522 0.125268
0.139845 0.457522 0.125322
0.201459 0.457522 0.125554
0.264441 0.457522 0.125554
0.328488 0.457522 0.125554
0.392839 0.457522 0.125554
0.457953 0.457522 0.125554
0.540589 0.471218 0.125554
0.627689 0.485136 0.125554
0.714697 0.495033 0.125554
0.797723 0.502777 0.125554
0.880655 0.507580 0.125554
0.951847 0.509438 0.125554
0.981240 0.501847 0.125554
0.027152 0.535404 0.125090
0.043138 0.535404 0.122709
0.085422 0.535404 0.126014
0.145517 0.535404 0.125454
0.209577 0.535404 0.125554
0.275977 0.535404 0.125554
0.341414 0.535404 0.125554
0.408071 0.535404 0.125554
0.475535 0.535404 0.125554
0.543733 0.535404 0.125554
0.630072 0.549711 0.125554
0.714883 0.560194 0.125554
0.797723 0.568810 0.125554
0.880655 0.575342 0.125554
0.951847 0.576431 0.125554
0.981240 0.567707 0.125554
0.027152 0.615452 0.126447
0.043138 0.615452 0.122850
0.087478 0.615452 0.125534
0.150044 0.615452 0.125590
0.215785 0.615452 0.125554
0.282035 0.615452 0.125554
0.351457 0.615452 0.125554
0.420000 0.615452 0.125554
0.489234 0.615452 0.125554
0.559302 0.615452 0.125554
0.629726 0.615452 0.125554
0.714476 0.625926 0.125554
0.797723 0.637059 0.125554
0.880655 0.643423 0.125554
0.951847 0.644695 0.125554
0.981240 0.634825 0.125554
0.027152 0.696128 0.127504
0.043138 0.696128 0.122962
0.089551 0.696128 0.125666
0.154555 0.696128 0.125714
0.221624 0.696128 0.125554
0.290303 0.696128 0.125554
0.359107 0.696128 0.125554
0.428940 0.696128 0.125554
0.499590 0.696128 0.125554
0.570884 0.696128 0.125554
0.643729 0.696128 0.125554
0.715230 0.696128 0.125554
0.797723 0.703847 0.125554
0.880655 0.712623 0.125554
0.951847 0.714392 0.125554
0.981240 0.703091 0.125554
0.027152 0.775938 0.128230
0.043138 0.775938 0.123082
0.089551 0.775938 0.124556
0.156806 0.775938 0.126756
0.224963 0.775938 0.125554
0.294516 0.775938 0.125554
0.364354 0.775938 0.125554
0.435012 0.775938 0.125554
0.506587 0.775938 0.125554
0.578819 0.775938 0.125554
0.651538 0.775938 0.125554
0.724951 0.775938 0.125554
0.798690 0.775928 0.125554
0.880655 0.782782 0.125554
0.951847 0.784505 0.125554
0.981240 0.772327 0.125554
0.027152 0.851296 0.128622
0.043138 0.851296 0.123185
0.090587 0.851296 0.125868
0.157919 0.851296 0.125931
0.227650 0.851296 0.125554
0.296649 0.851296 0.125554
0.366955 0.851296 0.125554
0.438088 0.851296 0.125554
0.510100 0.851296 0.125554
0.582776 0.851296 0.125554
0.655931 0.851296 0.125554
0.729779 0.851296 0.125554
0.805376 0.851164 0.125554
0.880655 0.852046 0.125554
0.951847 0.855002 0.125554
0.981240 0.842447 0.125554
0.027152 0.890340 0.128453
0.043138 0.890340 0.123229
0.090587 0.890340 0.125696
0.157919 0.890340 0.125986
0.226147 0.890340 0.125554
0.294868 0.890340 0.125554
0.365491 0.890340 0.125554
0.436400 0.890340 0.125554
0.508011 0.890340 0.125554
0.580412 0.890340 0.125554
0.653900 0.890340 0.125554
0.727516 0.890340 0.125554
0.801506 0.891159 0.125554
0.874993 0.888633 0.125554
0.951847 0.895950 0.125554
0.981240 0.892462 0.125554
0.027152 0.993833 0.127985
0.043138 0.993833 0.123340
0.089551 0.993833 0.125229
0.154555 0.993833 0.126085
0.222076 0.993833 0.125554
0.292027 0.993833 0.125554
0.361584 0.993833 0.125554
0.431628 0.993833 0.125554
0.502522 0.993833 0.125554
0.574091 0.993833 0.125554
0.646596 0.993833 0.125554
0.720337 0.993833 0.125554
0.793907 0.993833 0.125554
0.864705 0.993833 0.125554
0.939676 0.993833 0.125554
0.981258 0.993833 0.125554
0.027152 0.061402 0.164693
0.036233 0.061402 0.164693
0.066744 0.061402 0.164693
0.110475 0.061402 0.163743
0.163688 0.061402 0.162608
0.226623 0.061402 0.165374
0.295850 0.061402 0.169346
0.372135 0.061402 0.174051
0.454979 0.061402 0.179041
0.540589 0.061402 0.183486
0.627726 0.061402 0.186890
0.714697 0.061402 0.189358
0.797723 0.061402 0.191698
0.880655 0.061402 0.193627
0.951847 0.061402 0.193690
0.981240 0.061402 0.191654
0.027152 0.076573 0.164693
0.043138 0.082225 0.164693
0.069592 0.084108 0.164693
0.112419 0.084108 0.166618
0.163688 0.083692 0.166250
0.226623 0.083692 0.168231
0.295850 0.083692 0.172062
0.372135 0.083692 0.175995
0.454979 0.083692 0.180100
0.540589 0.083692 0.183743
0.627726 0.083692 0.185967
0.714697 0.083692 0.189648
0.797723 0.083692 0.191203
0.880655 0.083692 0.191516
0.951847 0.083692 0.192202
0.981240 0.083692 0.190551
0.027152 0.114486 0.164693
0.043138 0.115056 0.164693
0.071513 0.115429 0.164693
0.112419 0.116000 0.164693
0.163688 0.115721 0.164336
0.226623 0.115721 0.164430
0.295850 0.115721 0.164336
0.372135 0.115721 0.164430
0.454979 0.115721 0.164554
0.540590 0.115721 0.164695
0.627726 0.115721 0.165527
0.714697 0.115721 0.165663
0.797723 0.115721 0.165316
0.880655 0.115721 0.165374
0.951847 0.115721 0.165316
0.981240 0.115721 0.165374
0.027152 0.154055 0.160905
0.043138 0.154055 0.163119
0.071513 0.154055 0.161850
0.111303 0.154055 0.165051
0.163688 0.156110 0.164693
0.226623 0.160232 0.164693
0.295850 0.163669 0.164693
0.372135 0.167792 0.164693
0.454979 0.171983 0.164693
0.540590 0.175646 0.164693
0.627726 0.177655 0.164693
0.714697 0.181314 0.164693
0.797723 0.181893 0.164693
0.880655 0.183862 0.164693
0.951847 0.183790 0.164693
0.981240 0.181965 0.164693
0.027152 0.200007 0.161586
0.043138 0.200007 0.164294
0.071513 0.200007 0.162529
0.114677 0.200007 0.165257
0.163688 0.200478 0.164693
0.226623 0.205836 0.164693
0.295850 0.212794 0.164693
0.372135 0.220044 0.164693
0.454979 0.227454 0.164693
0.540590 0.233886 0.164693
0.627726 0.238838 0.164693
0.714697 0.244327 0.164693
0.797723 0.245312 0.164693
0.880655 0.248867 0.164693
0.951847 0.248160 0.164693
0.981240 0.245072 0.164693
0.027152 0.253690 0.164956
0.043138 0.253690 0.167256
0.071513 0.253690 0.162081
0.118078 0.253690 0.165319
0.171519 0.254186 0.164693
0.227720 0.252950 0.164693
0.295850 0.262724 0.164693
0.372135 0.272862 0.164693
0.454979 0.283156 0.164693
0.540590 0.292064 0.164693
0.627726 0.300234 0.164693
0.714697 0.305354 0.164693
0.797723 0.308002 0.164693
0.880655 0.312417 0.164693
0.951847 0.311812 0.164693
0.981240 0.307650 0.164693
0.027152 0.314902 0.169572
0.043138 0.314902 0.171137
0.071513 0.314902 0.161890
0.123827 0.314902 0.164382
0.179864 0.314902 0.164693
0.238521 0.315006 0.164693
0.297444 0.314902 0.164693
0.372135 0.326398 0.164693
0.454979 0.339486 0.164693
0.540590 0.350761 0.164693
0.627726 0.361332 0.164693
0.714697 0.366945 0.164693
0.797723 0.371140 0.164693
0.880655 0.376297 0.164693
0.951847 0.375926 0.164693
0.981240 0.370603 0.164693
0.027152 0.383075 0.174682
0.043138 0.383075 0.175378
0.071513 0.383075 0.164063
0.128420 0.383075 0.163784
0.189023 0.383075 0.164693
0.250972 0.383075 0.164693
0.312444 0.383075 0.164693
0.374773 0.383075 0.164693
0.454979 0.396404 0.164693
0.540590 0.410145 0.164693
0.627726 0.420216 0.164693
0.714697 0.431071 0.164693
0.797723 0.436087 0.164693
0.880655 0.440140 0.164693
0.951847 0.440830 0.164693
0.981240 0.434421 0.164693
0.027152 0.457522 0.179812
0.043138 0.457522 0.179626
0.071513 0.457522 0.164323
0.133001 0.457522 0.166075
0.196624 0.457522 0.164693
0.262755 0.457522 0.164693
0.327011 0.457522 0.164693
0.392273 0.457522 0.164693
0.458098 0.457522 0.164693
0.540590 0.470542 0.164693
0.627787 0.484196 0.164693
0.714697 0.494354 0.164693
0.797723 0.501308 0.164693
0.880655 0.507013 0.164693
0.951847 0.507032 0.164693
0.981240 0.499373 0.164693
0.027152 0.535404 0.184176
0.043138 0.535404 0.183297
0.071513 0.535404 0.163801
0.136425 0.535404 0.163902
0.203745 0.535404 0.164693
0.271288 0.535404 0.164693
0.338978 0.535404 0.164693
0.406617 0.535404 0.164693
0.474889 0.535404 0.164693
0.543715 0.535404 0.164693
0.628442 0.547802 0.164693
0.714919 0.559271 0.164693
0.797723 0.566955 0.164693
0.880655 0.574364 0.164693
0.951847 0.574591 0.164693
0.981240 0.565784 0.164693
0.027152 0.615452 0.187659
0.043138 0.615452 0.186238
0.071513 0.615452 0.164346
0.139845 0.615452 0.164866
0.209203 0.615452 0.164693
0.278810 0.615452 0.164693
0.348338 0.615452 0.164693
0.417875 0.615452 0.164693
0.487985 0.615452 0.164693
0.558728 0.615452 0.164693
0.630473 0.615452 0.164693
0.714964 0.625926 0.164693
0.797723 0.635737 0.164693
0.880655 0.642959 0.164693
0.951847 0.643355 0.164693
0.981240 0.633439 0.164693
0.027152 0.696128 0.190358
0.043138 0.696128 0.188517
0.071513 0.696128 0.165043
0.142121 0.696128 0.165175
0.212303 0.696128 0.164693
0.285446 0.696128 0.164693
0.355398 0.696128 0.164693
0.426307 0.696128 0.164693
0.497779 0.696128 0.164693
0.569819 0.696128 0.164693
0.641964 0.696128 0.164693
0.715078 0.696128 0.164693
0.797723 0.704605 0.164693
0.880655 0.711584 0.164693
0.951847 0.713215 0.164693
0.981240 0.702008 0.164693
0.027152 0.775938 0.192259
0.043138 0.775938 0.190109
0.071513 0.775938 0.165932
0.143251 0.775938 0.165779
0.217239 0.775938 0.164693
0.289297 0.775938 0.164693
0.360102 0.775938 0.164693
0.432017 0.775938 0.164693
0.504400 0.775938 0.164693
0.577315 0.775938 0.164693
0.650352 0.775938 0.164693
0.725413 0.775938 0.164693
0.797723 0.775368 0.164693
0.880655 0.782900 0.164693
0.951847 0.783902 0.164693
0.981240 0.771434 0.164693
0.027152 0.851296 0.193269
0.043138 0.851296 0.191021
0.071513 0.851296 0.165970
0.143251 0.851296 0.165673
0.216599 0.851296 0.164693
0.290041 0.851296 0.164693
0.362611 0.851296 0.164693
0.434801 0.851296 0.164693
0.507596 0.851296 0.164693
0.580928 0.851296 0.164693
0.656385 0.851296 0.164693
0.727984 0.851296 0.164693
0.804414 0.851995 0.164693
0.880655 0.852305 0.164693
0.951847 0.854881 0.164693
0.981240 0.841809 0.164693
0.027152 0.890340 0.192864
0.043138 0.890340 0.190683
0.071513 0.890340 0.165568
0.143251 0.890340 0.165377
0.216020 0.890340 0.164693
0.289166 0.890340 0.164693
0.361015 0.890340 0.164693
0.432938 0.890340 0.164693
0.505434 0.890340 0.164693
0.578441 0.890340 0.164693
0.651374 0.890340 0.164693
0.726504 0.890340 0.164693
0.800627 0.891151 0.164693
0.874026 0.888581 0.164693
0.951847 0.895942 0.164693
0.981240 0.892409 0.164693
0.027152 0.993833 0.191657
0.043138 0.993833 0.189723
0.071513 0.993833 0.165348
0.142121 0.993833 0.164434
0.215051 0.993833 0.164693
0.285256 0.993833 0.164693
0.356958 0.993833 0.164693
0.428167 0.993833 0.164693
0.499851 0.993833 0.164693
0.572024 0.993833 0.164693
0.644931 0.993833 0.164693
0.718328 0.993833 0.164693
0.791615 0.993833 0.164693
0.864703 0.993833 0.164693
0.939337 0.993833 0.164693
0.981256 0.993833 0.164693
0.027152 0.061402 0.212476
0.035440 0.061402 0.212476
0.063939 0.061402 0.212476
0.105999 0.061402 0.212476
0.163688 0.061402 0.217138
0.226623 0.061402 0.221597
0.295850 0.061402 0.227249
0.372135 0.061402 0.234813
0.454979 0.061402 0.242838
0.540589 0.061402 0.249935
0.627726 0.061402 0.256242
0.714697 0.061402 0.261326
0.797723 0.061402 0.264274
0.880655 0.061402 0.265265
0.951847 0.061402 0.266360
0.981240 0.061402 0.263178
0.027152 0.075337 0.212476
0.043138 0.081747 0.212476
0.069592 0.083808 0.212476
0.109071 0.083628 0.212476
0.163688 0.083692 0.217449
0.226623 0.083692 0.221704
0.295850 0.083692 0.228579
0.372135 0.083692 0.235932
0.454979 0.083692 0.243539
0.540589 0.083692 0.250226
0.627726 0.083692 0.255920
0.714697 0.083692 0.261629
0.797723 0.083692 0.262554
0.880655 0.083692 0.265761
0.951847 0.083692 0.265669
0.981240 0.083692 0.262641
0.027152 0.111002 0.212476
0.043138 0.113611 0.212476
0.071513 0.114779 0.212476
0.111303 0.116445 0.212476
0.163688 0.115721 0.216416
0.226623 0.115721 0.219677
0.295850 0.115721 0.224502
0.372135 0.115721 0.229813
0.454979 0.115721 0.235252
0.540590 0.115721 0.240076
0.627726 0.115721 0.243457
0.714697 0.115721 0.247270
0.797723 0.115721 0.249121
0.880655 0.115721 0.251038
0.951847 0.115721 0.251187
0.981240 0.115721 0.248972
0.027152 0.153115 0.212476
0.043138 0.153443 0.212476
0.071513 0.153115 0.212476
0.112419 0.153443 0.212476
0.163688 0.154055 0.212541
0.226623 0.154055 0.212712
0.295850 0.154055 0.212541
0.372135 0.154055 0.212712
0.454979 0.154055 0.212914
0.540589 0.154055 0.213166
0.627726 0.154055 0.213927
0.714697 0.154055 0.213166
0.797722 0.154055 0.214145
0.880655 0.154055 0.213189
0.951847 0.154055 0.214145
0.981240 0.154055 0.214187
0.027152 0.200007 0.214712
0.043138 0.200007 0.215649
0.071513 0.200007 0.214712
0.112419 0.200007 0.211631
0.164809 0.201197 0.212476
0.226623 0.203826 0.212476
0.295850 0.207819 0.212476
0.372135 0.212344 0.212476
0.454979 0.217036 0.212476
0.540589 0.221073 0.212476
0.627726 0.224610 0.212476
0.714697 0.227695 0.212476
0.797722 0.228760 0.212476
0.880655 0.229401 0.212476
0.951847 0.229713 0.212476
0.981240 0.227519 0.212476
0.027152 0.253690 0.220115
0.043138 0.253690 0.221283
0.071513 0.253690 0.219106
0.112419 0.253690 0.213242
0.168160 0.253023 0.212476
0.227720 0.253491 0.212476
0.295850 0.260613 0.212476
0.372135 0.268674 0.212476
0.454979 0.276880 0.212476
0.540589 0.283955 0.212476
0.627726 0.289234 0.212476
0.714697 0.294394 0.212476
0.797722 0.297245 0.212476
0.880655 0.299212 0.212476
0.951847 0.299148 0.212476
0.981240 0.295432 0.212476
0.027152 0.314902 0.227596
0.043138 0.314902 0.228513
0.071513 0.314902 0.224567
0.112419 0.314902 0.213357
0.174326 0.314902 0.212476
0.235294 0.315077 0.212476
0.297477 0.314902 0.212476
0.372135 0.324568 0.212476
0.454979 0.335900 0.212476
0.540589 0.345599 0.212476
0.627726 0.353940 0.212476
0.714697 0.358877 0.212476
0.797722 0.363740 0.212476
0.880655 0.366342 0.212476
0.951847 0.366623 0.212476
0.981240 0.361579 0.212476
0.027152 0.383075 0.235848
0.043138 0.383075 0.236353
0.071513 0.383075 0.229735
0.112419 0.383075 0.215052
0.179926 0.383075 0.212476
0.245454 0.383075 0.212476
0.310102 0.383075 0.212476
0.374672 0.383075 0.212476
